; Generated by Kiri:Moto 1.4.3
; Thu Jul 04 2019 11:24:49 GMT+0200 (Central European Summer Time)
; Bed left:0 right:300 top:175 bottom:0
; --- process ---
; processName = default
; outputOriginCenter = false
; outputInvertX = false
; outputInvertY = false
; sliceHeight = 0.25
; sliceShells = 3
; sliceShellSpacing = 1
; sliceFillAngle = 45
; sliceFillOverlap = 0.3
; sliceFillSparse = 0.5
; sliceFillType = hex
; sliceSupportEnable = false
; sliceSupportDensity = 0.25
; sliceSupportOffset = 1
; sliceSupportGap = 1
; sliceSupportSize = 10
; sliceSupportArea = 1
; sliceSupportExtra = 0
; sliceSupportSpan = 6
; sliceSolidMinArea = 1
; sliceSolidLayers = 3
; sliceBottomLayers = 3
; sliceTopLayers = 3
; firstSliceHeight = 0.25
; firstLayerRate = 30
; firstLayerFillRate = 40
; firstLayerPrintMult = 1
; outputRaft = false
; outputRaftSpacing = 0.2
; firstLayerNozzleTemp = 0
; firstLayerBedTemp = 0
; outputTemp = 200
; outputFanMax = 255
; outputBedTemp = 0
; outputFeedrate = 80
; outputFinishrate = 60
; outputSeekrate = 100
; outputShellMult = 1.2
; outputFillMult = 1.2
; outputSparseMult = 1.2
; outputFanLayer = 1
; outputRetractDist = 1
; outputRetractSpeed = 40
; outputRetractDwell = 30
; outputBrimCount = 2
; outputBrimOffset = 2
; outputShortPoly = 50
; outputMinSpeed = 15
; outputCoastDist = 0
; outputWipeDistance = 0
; sliceMinHeight = 0
; antiBacklash = 1
; zHopDistance = 0.2
; outputLayerRetract = false
; gcodeNozzle = 0
; gcodePauseLayers = 
; outputClockwise = true
; --- startup ---
M104 S200 T0     ; set extruder temperature
M140 S0 T0 ; set bed temperature
G90                      ; set absolute positioning mode
M83                      ; set relative positioning for extruder
M107                     ; turn off filament cooling fan
G28                      ; home axes
G29                      ; level bed
G92 X0 Y0 Z0 E0          ; reset all axes positions
G0 X0 Y0 Z0.25 F180      ; move xy to 0,0 and z 0.25mm over bed
G92 E0                   ; zero the extruded
M190 S0 T0 ; wait for bed to reach target temp
M109 S200 T0     ; wait for extruder to reach target temp
G1 E15 F200              ; purge 15mm from extruder
G92 E0                   ; zero the extruded
G1 F225                  ; set feed speed
 ; retract 1
G1 E-1 F2400
 ; zhop up
G1 Z0.200 F6000
; --- layer 0 (0.250 @ 0.00) ---
G1 Z0.250
G1 X162.200 Y75.300
 ; zhop down
G1 Z0.250
 ; engage 1
G1 E1 F2400
G4 P30
G1 X137.800 Y75.300 E0.956 F1800
G1 X137.800 Y99.700 E0.956
G1 X162.200 Y99.700 E0.956
G1 X162.200 Y75.300 E0.956
G1 X162.600 Y74.900 F6000
G1 X137.400 Y74.900 E0.987 F1800
G1 X137.400 Y100.100 E0.987
G1 X162.600 Y100.100 E0.987
G1 X162.600 Y74.900 E0.987
 ; retract 1
G1 E-1 F2400
 ; zhop up
G1 Z0.450 F6000
G1 X162.600 Y74.900
G1 X159.800 Y77.700
 ; zhop down
G1 Z0.250
 ; engage 1
G1 E1 F2400
G4 P30
G1 X140.200 Y77.700 E0.768 F1800
G1 X140.200 Y97.300 E0.768
G1 X159.800 Y97.300 E0.768
G1 X159.800 Y77.700 E0.768
G1 X159.400 Y78.100 F6000
G1 X140.600 Y78.100 E0.737 F1800
G1 X140.600 Y96.900 E0.737
G1 X159.400 Y96.900 E0.737
G1 X159.400 Y78.100 E0.737
G1 X159.000 Y78.500 F6000
G1 X141.000 Y78.500 E0.705 F1800
G1 X141.000 Y96.500 E0.705
G1 X159.000 Y96.500 E0.705
G1 X159.000 Y78.500 E0.705
G1 X158.720 Y79.346 F6000
G1 X158.154 Y78.780 E0.031 F2400
G1 X157.589 Y78.780 E0.022
G1 X158.720 Y79.911 E0.063
G1 X158.720 Y80.477 E0.022
G1 X157.023 Y78.780 E0.094
G1 X156.457 Y78.780 E0.022
G1 X158.720 Y81.043 E0.125
G1 X158.720 Y81.608 E0.022
G1 X155.892 Y78.780 E0.157
G1 X155.326 Y78.780 E0.022
G1 X158.720 Y82.174 E0.188
G1 X158.720 Y82.740 E0.022
G1 X154.760 Y78.780 E0.219
G1 X154.195 Y78.780 E0.022
G1 X158.720 Y83.305 E0.251
G1 X158.720 Y83.871 E0.022
G1 X153.629 Y78.780 E0.282
G1 X153.063 Y78.780 E0.022
G1 X158.720 Y84.437 E0.313
G1 X158.720 Y85.003 E0.022
G1 X152.497 Y78.780 E0.345
G1 X151.932 Y78.780 E0.022
G1 X158.720 Y85.568 E0.376
G1 X158.720 Y86.134 E0.022
G1 X151.366 Y78.780 E0.408
G1 X150.800 Y78.780 E0.022
G1 X158.720 Y86.700 E0.439
G1 X158.720 Y87.265 E0.022
G1 X150.235 Y78.780 E0.47
G1 X149.669 Y78.780 E0.022
G1 X158.720 Y87.831 E0.502
G1 X158.720 Y88.397 E0.022
G1 X149.103 Y78.780 E0.533
G1 X148.538 Y78.780 E0.022
G1 X158.720 Y88.962 E0.564
G1 X158.720 Y89.528 E0.022
G1 X147.972 Y78.780 E0.596
G1 X147.406 Y78.780 E0.022
G1 X158.720 Y90.094 E0.627
G1 X158.720 Y90.659 E0.022
G1 X146.841 Y78.780 E0.658
G1 X146.275 Y78.780 E0.022
G1 X158.720 Y91.225 E0.69
G1 X158.720 Y91.791 E0.022
G1 X145.709 Y78.780 E0.721
G1 X145.144 Y78.780 E0.022
G1 X158.720 Y92.356 E0.752
G1 X158.720 Y92.922 E0.022
G1 X144.578 Y78.780 E0.784
G1 X144.012 Y78.780 E0.022
G1 X158.720 Y93.488 E0.815
G1 X158.720 Y94.054 E0.022
G1 X143.446 Y78.780 E0.846
G1 X142.881 Y78.780 E0.022
G1 X158.720 Y94.619 E0.878
G1 X158.720 Y95.185 E0.022
G1 X142.315 Y78.780 E0.909
G1 X141.749 Y78.780 E0.022
G1 X158.720 Y95.751 E0.94
G1 X158.624 Y96.220 E0.019
G1 X141.280 Y78.876 E0.961
G1 X141.280 Y79.442 E0.022
G1 X158.058 Y96.220 E0.93
G1 X157.492 Y96.220 E0.022
G1 X141.280 Y80.008 E0.898
G1 X141.280 Y80.573 E0.022
G1 X156.927 Y96.220 E0.867
G1 X156.361 Y96.220 E0.022
G1 X141.280 Y81.139 E0.836
G1 X141.280 Y81.705 E0.022
G1 X155.795 Y96.220 E0.804
G1 X155.230 Y96.220 E0.022
G1 X141.280 Y82.270 E0.773
G1 X141.280 Y82.836 E0.022
G1 X154.664 Y96.220 E0.742
G1 X154.098 Y96.220 E0.022
G1 X141.280 Y83.402 E0.71
G1 X141.280 Y83.967 E0.022
G1 X153.533 Y96.220 E0.679
G1 X152.967 Y96.220 E0.022
G1 X141.280 Y84.533 E0.648
G1 X141.280 Y85.099 E0.022
G1 X152.401 Y96.220 E0.616
G1 X151.836 Y96.220 E0.022
G1 X141.280 Y85.664 E0.585
G1 X141.280 Y86.230 E0.022
G1 X151.270 Y96.220 E0.554
G1 X150.704 Y96.220 E0.022
G1 X141.280 Y86.796 E0.522
G1 X141.280 Y87.362 E0.022
G1 X150.138 Y96.220 E0.491
G1 X149.573 Y96.220 E0.022
G1 X141.280 Y87.927 E0.46
G1 X141.280 Y88.493 E0.022
G1 X149.007 Y96.220 E0.428
G1 X148.441 Y96.220 E0.022
G1 X141.280 Y89.059 E0.397
G1 X141.280 Y89.624 E0.022
G1 X147.876 Y96.220 E0.365
G1 X147.310 Y96.220 E0.022
G1 X141.280 Y90.190 E0.334
G1 X141.280 Y90.756 E0.022
G1 X146.744 Y96.220 E0.303
G1 X146.179 Y96.220 E0.022
G1 X141.280 Y91.321 E0.271
G1 X141.280 Y91.887 E0.022
G1 X145.613 Y96.220 E0.24
G1 X145.047 Y96.220 E0.022
G1 X141.280 Y92.453 E0.209
G1 X141.280 Y93.018 E0.022
G1 X144.482 Y96.220 E0.177
G1 X143.916 Y96.220 E0.022
G1 X141.280 Y93.584 E0.146
G1 X141.280 Y94.150 E0.022
G1 X143.350 Y96.220 E0.115
G1 X142.785 Y96.220 E0.022
G1 X141.280 Y94.715 E0.083
G1 X141.280 Y95.281 E0.022
G1 X142.219 Y96.220 E0.052
G1 X141.467 Y96.033 E0.025
; --- layer 1 (0.250 @ 0.25) ---
M106 S255
G1 Z0.500 F6000
G1 X141.467 Y96.033
G1 X140.200 Y97.300
G1 X159.800 Y97.300 E0.768 F3600
G1 X159.800 Y77.700 E0.768
G1 X140.200 Y77.700 E0.768
G1 X140.200 Y97.300 E0.768
G1 X140.600 Y96.900 F6000
G1 X159.400 Y96.900 E0.737 F4800
G1 X159.400 Y78.100 E0.737
G1 X140.600 Y78.100 E0.737
G1 X140.600 Y96.900 E0.737
G1 X141.000 Y96.500 F6000
G1 X159.000 Y96.500 E0.705 F4800
G1 X159.000 Y78.500 E0.705
G1 X141.000 Y78.500 E0.705
G1 X141.000 Y96.500 E0.705
 ; retract 1
G1 E-1 F2400
 ; zhop up
G1 Z0.700 F6000
G1 X142.846 Y77.780
G1 X141.846 Y78.780
 ; zhop down
G1 Z0.500
 ; engage 1
G1 E1 F2400
G4 P30
G1 X141.280 Y79.346 E0.031 F4800
G1 X141.280 Y79.911 E0.022
G1 X142.411 Y78.780 E0.063
G1 X142.977 Y78.780 E0.022
G1 X141.280 Y80.477 E0.094
G1 X141.280 Y81.043 E0.022
G1 X143.543 Y78.780 E0.125
G1 X144.108 Y78.780 E0.022
G1 X141.280 Y81.608 E0.157
G1 X141.280 Y82.174 E0.022
G1 X144.674 Y78.780 E0.188
G1 X145.240 Y78.780 E0.022
G1 X141.280 Y82.740 E0.219
G1 X141.280 Y83.305 E0.022
G1 X145.805 Y78.780 E0.251
G1 X146.371 Y78.780 E0.022
G1 X141.280 Y83.871 E0.282
G1 X141.280 Y84.437 E0.022
G1 X146.937 Y78.780 E0.313
G1 X147.503 Y78.780 E0.022
G1 X141.280 Y85.003 E0.345
G1 X141.280 Y85.568 E0.022
G1 X148.068 Y78.780 E0.376
G1 X148.634 Y78.780 E0.022
G1 X141.280 Y86.134 E0.408
G1 X141.280 Y86.700 E0.022
G1 X149.200 Y78.780 E0.439
G1 X149.765 Y78.780 E0.022
G1 X141.280 Y87.265 E0.47
G1 X141.280 Y87.831 E0.022
G1 X150.331 Y78.780 E0.502
G1 X150.897 Y78.780 E0.022
G1 X141.280 Y88.397 E0.533
G1 X141.280 Y88.962 E0.022
G1 X151.462 Y78.780 E0.564
G1 X152.028 Y78.780 E0.022
G1 X141.280 Y89.528 E0.596
G1 X141.280 Y90.094 E0.022
G1 X152.594 Y78.780 E0.627
G1 X153.159 Y78.780 E0.022
G1 X141.280 Y90.659 E0.658
G1 X141.280 Y91.225 E0.022
G1 X153.725 Y78.780 E0.69
G1 X154.291 Y78.780 E0.022
G1 X141.280 Y91.791 E0.721
G1 X141.280 Y92.356 E0.022
G1 X154.856 Y78.780 E0.752
G1 X155.422 Y78.780 E0.022
G1 X141.280 Y92.922 E0.784
G1 X141.280 Y93.488 E0.022
G1 X155.988 Y78.780 E0.815
G1 X156.554 Y78.780 E0.022
G1 X141.280 Y94.054 E0.846
G1 X141.280 Y94.619 E0.022
G1 X157.119 Y78.780 E0.878
G1 X157.685 Y78.780 E0.022
G1 X141.280 Y95.185 E0.909
G1 X141.280 Y95.751 E0.022
G1 X158.251 Y78.780 E0.94
G1 X158.720 Y78.876 E0.019
G1 X141.376 Y96.220 E0.961
G1 X141.942 Y96.220 E0.022
G1 X158.720 Y79.442 E0.93
G1 X158.720 Y80.008 E0.022
G1 X142.508 Y96.220 E0.898
G1 X143.073 Y96.220 E0.022
G1 X158.720 Y80.573 E0.867
G1 X158.720 Y81.139 E0.022
G1 X143.639 Y96.220 E0.836
G1 X144.205 Y96.220 E0.022
G1 X158.720 Y81.705 E0.804
G1 X158.720 Y82.270 E0.022
G1 X144.770 Y96.220 E0.773
G1 X145.336 Y96.220 E0.022
G1 X158.720 Y82.836 E0.742
G1 X158.720 Y83.402 E0.022
G1 X145.902 Y96.220 E0.71
G1 X146.467 Y96.220 E0.022
G1 X158.720 Y83.967 E0.679
G1 X158.720 Y84.533 E0.022
G1 X147.033 Y96.220 E0.648
G1 X147.599 Y96.220 E0.022
G1 X158.720 Y85.099 E0.616
G1 X158.720 Y85.664 E0.022
G1 X148.164 Y96.220 E0.585
G1 X148.730 Y96.220 E0.022
G1 X158.720 Y86.230 E0.554
G1 X158.720 Y86.796 E0.022
G1 X149.296 Y96.220 E0.522
G1 X149.862 Y96.220 E0.022
G1 X158.720 Y87.362 E0.491
G1 X158.720 Y87.927 E0.022
G1 X150.427 Y96.220 E0.46
G1 X150.993 Y96.220 E0.022
G1 X158.720 Y88.493 E0.428
G1 X158.720 Y89.059 E0.022
G1 X151.559 Y96.220 E0.397
G1 X152.124 Y96.220 E0.022
G1 X158.720 Y89.624 E0.365
G1 X158.720 Y90.190 E0.022
G1 X152.690 Y96.220 E0.334
G1 X153.256 Y96.220 E0.022
G1 X158.720 Y90.756 E0.303
G1 X158.720 Y91.321 E0.022
G1 X153.821 Y96.220 E0.271
G1 X154.387 Y96.220 E0.022
G1 X158.720 Y91.887 E0.24
G1 X158.720 Y92.453 E0.022
G1 X154.953 Y96.220 E0.209
G1 X155.518 Y96.220 E0.022
G1 X158.720 Y93.018 E0.177
G1 X158.720 Y93.584 E0.022
G1 X156.084 Y96.220 E0.146
G1 X156.650 Y96.220 E0.022
G1 X158.720 Y94.150 E0.115
G1 X158.720 Y94.715 E0.022
G1 X157.215 Y96.220 E0.083
G1 X157.781 Y96.220 E0.022
G1 X158.720 Y95.281 E0.052
G1 X158.533 Y96.033 E0.025
; --- layer 2 (0.250 @ 0.50) ---
G1 Z0.750 F6000
G1 X158.533 Y96.033
G1 X159.800 Y97.300
G1 X159.800 Y77.700 E0.768 F3600
G1 X140.200 Y77.700 E0.768
G1 X140.200 Y97.300 E0.768
G1 X159.800 Y97.300 E0.768
G1 X159.400 Y96.900 F6000
G1 X159.400 Y78.100 E0.737 F4800
G1 X140.600 Y78.100 E0.737
G1 X140.600 Y96.900 E0.737
G1 X159.400 Y96.900 E0.737
G1 X159.000 Y96.500 F6000
G1 X159.000 Y78.500 E0.705 F4800
G1 X141.000 Y78.500 E0.705
G1 X141.000 Y96.500 E0.705
G1 X159.000 Y96.500 E0.705
 ; retract 1
G1 E-1 F2400
 ; zhop up
G1 Z0.950 F6000
G1 X159.720 Y78.346
G1 X158.720 Y79.346
 ; zhop down
G1 Z0.750
 ; engage 1
G1 E1 F2400
G4 P30
G1 X158.154 Y78.780 E0.031 F4800
G1 X157.589 Y78.780 E0.022
G1 X158.720 Y79.911 E0.063
G1 X158.720 Y80.477 E0.022
G1 X157.023 Y78.780 E0.094
G1 X156.457 Y78.780 E0.022
G1 X158.720 Y81.043 E0.125
G1 X158.720 Y81.608 E0.022
G1 X155.892 Y78.780 E0.157
G1 X155.326 Y78.780 E0.022
G1 X158.720 Y82.174 E0.188
G1 X158.720 Y82.740 E0.022
G1 X154.760 Y78.780 E0.219
G1 X154.195 Y78.780 E0.022
G1 X158.720 Y83.305 E0.251
G1 X158.720 Y83.871 E0.022
G1 X153.629 Y78.780 E0.282
G1 X153.063 Y78.780 E0.022
G1 X158.720 Y84.437 E0.313
G1 X158.720 Y85.003 E0.022
G1 X152.497 Y78.780 E0.345
G1 X151.932 Y78.780 E0.022
G1 X158.720 Y85.568 E0.376
G1 X158.720 Y86.134 E0.022
G1 X151.366 Y78.780 E0.408
G1 X150.800 Y78.780 E0.022
G1 X158.720 Y86.700 E0.439
G1 X158.720 Y87.265 E0.022
G1 X150.235 Y78.780 E0.47
G1 X149.669 Y78.780 E0.022
G1 X158.720 Y87.831 E0.502
G1 X158.720 Y88.397 E0.022
G1 X149.103 Y78.780 E0.533
G1 X148.538 Y78.780 E0.022
G1 X158.720 Y88.962 E0.564
G1 X158.720 Y89.528 E0.022
G1 X147.972 Y78.780 E0.596
G1 X147.406 Y78.780 E0.022
G1 X158.720 Y90.094 E0.627
G1 X158.720 Y90.659 E0.022
G1 X146.841 Y78.780 E0.658
G1 X146.275 Y78.780 E0.022
G1 X158.720 Y91.225 E0.69
G1 X158.720 Y91.791 E0.022
G1 X145.709 Y78.780 E0.721
G1 X145.144 Y78.780 E0.022
G1 X158.720 Y92.356 E0.752
G1 X158.720 Y92.922 E0.022
G1 X144.578 Y78.780 E0.784
G1 X144.012 Y78.780 E0.022
G1 X158.720 Y93.488 E0.815
G1 X158.720 Y94.054 E0.022
G1 X143.446 Y78.780 E0.846
G1 X142.881 Y78.780 E0.022
G1 X158.720 Y94.619 E0.878
G1 X158.720 Y95.185 E0.022
G1 X142.315 Y78.780 E0.909
G1 X141.749 Y78.780 E0.022
G1 X158.720 Y95.751 E0.94
G1 X158.624 Y96.220 E0.019
G1 X141.280 Y78.876 E0.961
G1 X141.280 Y79.442 E0.022
G1 X158.058 Y96.220 E0.93
G1 X157.492 Y96.220 E0.022
G1 X141.280 Y80.008 E0.898
G1 X141.280 Y80.573 E0.022
G1 X156.927 Y96.220 E0.867
G1 X156.361 Y96.220 E0.022
G1 X141.280 Y81.139 E0.836
G1 X141.280 Y81.705 E0.022
G1 X155.795 Y96.220 E0.804
G1 X155.230 Y96.220 E0.022
G1 X141.280 Y82.270 E0.773
G1 X141.280 Y82.836 E0.022
G1 X154.664 Y96.220 E0.742
G1 X154.098 Y96.220 E0.022
G1 X141.280 Y83.402 E0.71
G1 X141.280 Y83.967 E0.022
G1 X153.533 Y96.220 E0.679
G1 X152.967 Y96.220 E0.022
G1 X141.280 Y84.533 E0.648
G1 X141.280 Y85.099 E0.022
G1 X152.401 Y96.220 E0.616
G1 X151.836 Y96.220 E0.022
G1 X141.280 Y85.664 E0.585
G1 X141.280 Y86.230 E0.022
G1 X151.270 Y96.220 E0.554
G1 X150.704 Y96.220 E0.022
G1 X141.280 Y86.796 E0.522
G1 X141.280 Y87.362 E0.022
G1 X150.138 Y96.220 E0.491
G1 X149.573 Y96.220 E0.022
G1 X141.280 Y87.927 E0.46
G1 X141.280 Y88.493 E0.022
G1 X149.007 Y96.220 E0.428
G1 X148.441 Y96.220 E0.022
G1 X141.280 Y89.059 E0.397
G1 X141.280 Y89.624 E0.022
G1 X147.876 Y96.220 E0.365
G1 X147.310 Y96.220 E0.022
G1 X141.280 Y90.190 E0.334
G1 X141.280 Y90.756 E0.022
G1 X146.744 Y96.220 E0.303
G1 X146.179 Y96.220 E0.022
G1 X141.280 Y91.321 E0.271
G1 X141.280 Y91.887 E0.022
G1 X145.613 Y96.220 E0.24
G1 X145.047 Y96.220 E0.022
G1 X141.280 Y92.453 E0.209
G1 X141.280 Y93.018 E0.022
G1 X144.482 Y96.220 E0.177
G1 X143.916 Y96.220 E0.022
G1 X141.280 Y93.584 E0.146
G1 X141.280 Y94.150 E0.022
G1 X143.350 Y96.220 E0.115
G1 X142.785 Y96.220 E0.022
G1 X141.280 Y94.715 E0.083
G1 X141.280 Y95.281 E0.022
G1 X142.219 Y96.220 E0.052
G1 X141.467 Y96.033 E0.025
; --- layer 3 (0.250 @ 0.75) ---
G1 Z1.000 F6000
G1 X141.467 Y96.033
G1 X140.200 Y97.300
G1 X159.800 Y97.300 E0.768 F3600
G1 X159.800 Y77.700 E0.768
G1 X140.200 Y77.700 E0.768
G1 X140.200 Y97.300 E0.768
G1 X140.600 Y96.900 F6000
G1 X159.400 Y96.900 E0.737 F4800
G1 X159.400 Y78.100 E0.737
G1 X140.600 Y78.100 E0.737
G1 X140.600 Y96.900 E0.737
G1 X141.000 Y96.500 F6000
G1 X159.000 Y96.500 E0.705 F4800
G1 X159.000 Y78.500 E0.705
G1 X141.000 Y78.500 E0.705
G1 X141.000 Y96.500 E0.705
G1 X141.975 Y96.220 F6000
G1 X141.975 Y94.600 E0.063 F4800
G1 X141.280 Y94.199 E0.031
G1 X142.255 Y96.220 F6000
G1 X142.255 Y94.600 E0.063 F4800
G1 X144.229 Y93.460 E0.089
G1 X144.229 Y91.180 E0.089
G1 X142.255 Y90.040 E0.089
G1 X142.255 Y87.760 E0.089
G1 X144.229 Y86.620 E0.089
G1 X144.229 Y84.340 E0.089
G1 X142.255 Y83.200 E0.089
G1 X142.255 Y80.920 E0.089
G1 X144.229 Y79.780 E0.089
G1 X144.229 Y78.780 E0.039
G1 X144.509 Y78.780 F6000
G1 X144.509 Y79.780 E0.039 F4800
G1 X146.484 Y80.920 E0.089
G1 X146.484 Y83.200 E0.089
G1 X144.509 Y84.340 E0.089
G1 X144.509 Y86.620 E0.089
G1 X146.484 Y87.760 E0.089
G1 X146.484 Y90.040 E0.089
G1 X144.509 Y91.180 E0.089
G1 X144.509 Y93.460 E0.089
G1 X146.484 Y94.600 E0.089
G1 X146.484 Y96.220 E0.063
G1 X146.764 Y96.220 F6000
G1 X146.764 Y94.600 E0.063 F4800
G1 X148.738 Y93.460 E0.089
G1 X148.738 Y91.180 E0.089
G1 X146.764 Y90.040 E0.089
G1 X146.764 Y87.760 E0.089
G1 X148.738 Y86.620 E0.089
G1 X148.738 Y84.340 E0.089
G1 X146.764 Y83.200 E0.089
G1 X146.764 Y80.920 E0.089
G1 X148.738 Y79.780 E0.089
G1 X148.738 Y78.780 E0.039
G1 X149.018 Y78.780 F6000
G1 X149.018 Y79.780 E0.039 F4800
G1 X150.993 Y80.920 E0.089
G1 X150.993 Y83.200 E0.089
G1 X149.018 Y84.340 E0.089
G1 X149.018 Y86.620 E0.089
G1 X150.993 Y87.760 E0.089
