;Generated with Cura_SteamEngine 15.04.5
M109 S210.0
G28 ;Home
G29 ;Nivelacion
G1 Z15.0 F6000 ;Move the platform down 15mm
;Prime the extruder
G92 E0
G1 F200 E3
G92 E0
;Layer count: 100
;LAYER:0
M107
G0 F9000 X14.000 Y14.000 Z0.300
;TYPE:SKIRT
G1 F1200 X-14.000 Y14.000 E1.39693
G1 X-14.000 Y-14.000 E2.79385
G1 X14.000 Y-14.000 E4.19078
G1 X14.000 Y14.000 E5.58770
G0 F9000 X13.600 Y13.600
G1 F1200 X-13.600 Y13.600 E6.94472
G1 X-13.600 Y-13.600 E8.30173
G1 X13.600 Y-13.600 E9.65874
G1 X13.600 Y13.600 E11.01576
G0 F9000 X13.200 Y13.200
G1 F1200 X-13.200 Y13.200 E12.33286
G1 X-13.200 Y-13.200 E13.64996
G1 X13.200 Y-13.200 E14.96706
G1 X13.200 Y13.200 E16.28416
G1 F2400 E11.78416
G0 F9000 X9.000 Y9.000
;TYPE:WALL-INNER
G1 F2400 E16.28416
G1 F1200 X-9.000 Y9.000 E17.18219
G1 X-9.000 Y-9.000 E18.08021
G1 X9.000 Y-9.000 E18.97823
G1 X9.000 Y9.000 E19.87626
G0 F9000 X9.400 Y9.400
G1 F1200 X-9.400 Y9.400 E20.81419
G1 X-9.400 Y-9.400 E21.75213
G1 X9.400 Y-9.400 E22.69006
G1 X9.400 Y9.400 E23.62800
G0 F9000 X9.800 Y9.800
;TYPE:WALL-OUTER
G1 F1200 X-9.800 Y9.800 E24.60585
G1 X-9.800 Y-9.800 E25.58370
G1 X9.800 Y-9.800 E26.56154
G1 X9.800 Y9.800 E27.53939
G0 F9000 X9.500 Y9.590
G0 X8.576 Y8.859
;TYPE:SKIN
G1 F1200 X-8.859 Y-8.576 E28.76953
G0 F9000 X-8.576 Y-8.859
G1 F1200 X8.859 Y8.576 E29.99966
G0 F9000 X8.859 Y8.010
G1 F1200 X-8.010 Y-8.859 E31.18986
G0 F9000 X-7.445 Y-8.859
G1 F1200 X8.859 Y7.445 E32.34019
G0 F9000 X8.859 Y6.879
G1 F1200 X-6.879 Y-8.859 E33.45059
G0 F9000 X-6.313 Y-8.859
G1 F1200 X8.859 Y6.313 E34.52106
G0 F9000 X8.859 Y5.748
G1 F1200 X-5.748 Y-8.859 E35.55166
G0 F9000 X-5.182 Y-8.859
G1 F1200 X8.859 Y5.182 E36.54233
G0 F9000 X8.859 Y4.616
G1 F1200 X-4.616 Y-8.859 E37.49307
G0 F9000 X-4.051 Y-8.859
G1 F1200 X8.859 Y4.051 E38.40394
G0 F9000 X8.859 Y3.485
G1 F1200 X-3.485 Y-8.859 E39.27487
G0 F9000 X-2.919 Y-8.859
G1 F1200 X8.859 Y2.919 E40.10587
G0 F9000 X8.859 Y2.353
G1 F1200 X-2.353 Y-8.859 E40.89694
G0 F9000 X-1.788 Y-8.859
G1 F1200 X8.859 Y1.788 E41.64814
G0 F9000 X8.859 Y1.222
G1 F1200 X-1.222 Y-8.859 E42.35941
G0 F9000 X-0.656 Y-8.859
G1 F1200 X8.859 Y0.656 E43.03075
G0 F9000 X8.859 Y0.091
G1 F1200 X-0.091 Y-8.859 E43.66222
G0 F9000 X0.474 Y-8.859
G1 F1200 X8.859 Y-0.474 E44.25383
G0 F9000 X8.859 Y-1.040
G1 F1200 X1.040 Y-8.859 E44.80550
G0 F9000 X1.605 Y-8.859
G1 F1200 X8.859 Y-1.605 E45.31731
G0 F9000 X8.859 Y-2.171
G1 F1200 X2.171 Y-8.859 E45.78918
G0 F9000 X2.737 Y-8.859
G1 F1200 X8.859 Y-2.737 E46.22112
G0 F9000 X8.859 Y-3.302
G1 F1200 X3.302 Y-8.859 E46.61320
G0 F9000 X3.868 Y-8.859
G1 F1200 X8.859 Y-3.868 E46.96534
G0 F9000 X8.859 Y-4.434
G1 F1200 X4.434 Y-8.859 E47.27755
G0 F9000 X4.999 Y-8.859
G1 F1200 X8.859 Y-4.999 E47.54989
G0 F9000 X8.859 Y-5.565
G1 F1200 X5.565 Y-8.859 E47.78230
G0 F9000 X6.131 Y-8.859
G1 F1200 X8.859 Y-6.131 E47.97478
G0 F9000 X8.859 Y-6.697
G1 F1200 X6.697 Y-8.859 E48.12732
G0 F9000 X7.262 Y-8.859
G1 F1200 X8.859 Y-7.262 E48.23999
G0 F9000 X8.859 Y-7.828
G1 F1200 X7.828 Y-8.859 E48.31274
G0 F9000 X8.394 Y-8.859
G1 F1200 X8.859 Y-8.394 E48.34554
G0 F9000 X8.010 Y8.859
G1 F1200 X-8.859 Y-8.010 E49.53574
G0 F9000 X-8.859 Y-7.445
G1 F1200 X7.445 Y8.859 E50.68608
G0 F9000 X6.879 Y8.859
G1 F1200 X-8.859 Y-6.879 E51.79648
G0 F9000 X-8.859 Y-6.313
G1 F1200 X6.313 Y8.859 E52.86695
G0 F9000 X5.748 Y8.859
G1 F1200 X-8.859 Y-5.748 E53.89755
G0 F9000 X-8.859 Y-5.182
G1 F1200 X5.182 Y8.859 E54.88822
G0 F9000 X4.616 Y8.859
G1 F1200 X-8.859 Y-4.616 E55.83895
G0 F9000 X-8.859 Y-4.051
G1 F1200 X4.051 Y8.859 E56.74982
G0 F9000 X3.485 Y8.859
G1 F1200 X-8.859 Y-3.485 E57.62076
G0 F9000 X-8.859 Y-2.919
G1 F1200 X2.919 Y8.859 E58.45176
G0 F9000 X2.353 Y8.859
G1 F1200 X-8.859 Y-2.353 E59.24283
G0 F9000 X-8.859 Y-1.788
G1 F1200 X1.788 Y8.859 E59.99403
G0 F9000 X1.222 Y8.859
G1 F1200 X-8.859 Y-1.222 E60.70530
G0 F9000 X-8.859 Y-0.656
G1 F1200 X0.656 Y8.859 E61.37663
G0 F9000 X0.091 Y8.859
G1 F1200 X-8.859 Y-0.091 E62.00810
G0 F9000 X-8.859 Y0.474
G1 F1200 X-0.474 Y8.859 E62.59971
G0 F9000 X-1.040 Y8.859
G1 F1200 X-8.859 Y1.040 E63.15138
G0 F9000 X-8.859 Y1.605
G1 F1200 X-1.605 Y8.859 E63.66319
G0 F9000 X-2.171 Y8.859
G1 F1200 X-8.859 Y2.171 E64.13507
G0 F9000 X-8.859 Y2.737
G1 F1200 X-2.737 Y8.859 E64.56701
G0 F9000 X-3.302 Y8.859
G1 F1200 X-8.859 Y3.302 E64.95908
G0 F9000 X-8.859 Y3.868
G1 F1200 X-3.868 Y8.859 E65.31123
G0 F9000 X-4.434 Y8.859
G1 F1200 X-8.859 Y4.434 E65.62343
G0 F9000 X-8.859 Y4.999
G1 F1200 X-4.999 Y8.859 E65.89578
G0 F9000 X-5.565 Y8.859
G1 F1200 X-8.859 Y5.565 E66.12819
G0 F9000 X-8.859 Y6.131
G1 F1200 X-6.131 Y8.859 E66.32066
G0 F9000 X-6.697 Y8.859
G1 F1200 X-8.859 Y6.697 E66.47320
G0 F9000 X-8.859 Y7.262
G1 F1200 X-7.262 Y8.859 E66.58588
G0 F9000 X-7.828 Y8.859
G1 F1200 X-8.859 Y7.828 E66.65862
G0 F9000 X-8.859 Y8.394
G1 F1200 X-8.394 Y8.859 E66.69143
;LAYER:1
M106 S255
G0 F9000 X-9.003 Y9.003 Z0.500
;TYPE:WALL-INNER
G1 F1320 X-9.003 Y-9.003 E67.28882
G1 X9.003 Y-9.003 E67.88620
G1 X9.003 Y9.003 E68.48358
G1 X-9.003 Y9.003 E69.08097
G0 F9000 X-9.402 Y9.402
G1 F1320 X-9.402 Y-9.402 E69.70483
G1 X9.402 Y-9.402 E70.32869
G1 X9.402 Y9.402 E70.95255
G1 X-9.402 Y9.402 E71.57641
G0 F9000 X-9.801 Y9.801
;TYPE:WALL-OUTER
G1 F1320 X-9.801 Y-9.801 E72.22675
G1 X9.801 Y-9.801 E72.87708
G1 X9.801 Y9.801 E73.52742
G1 X-9.801 Y9.801 E74.17775
G0 F9000 X-9.591 Y9.501
G0 X-8.862 Y8.581
;TYPE:SKIN
G1 F1320 X8.581 Y-8.862 E74.99616
G0 F9000 X8.862 Y-8.580
G1 F1320 X-8.580 Y8.862 E75.81453
G0 F9000 X-8.015 Y8.862
G1 F1320 X8.862 Y-8.015 E76.60639
G0 F9000 X8.862 Y-7.451
G1 F1320 X-7.451 Y8.862 E77.37178
G0 F9000 X-6.887 Y8.862
G1 F1320 X8.862 Y-6.887 E78.11072
G0 F9000 X8.862 Y-6.322
G1 F1320 X-6.322 Y8.862 E78.82314
G0 F9000 X-5.758 Y8.862
G1 F1320 X8.862 Y-5.758 E79.50910
G0 F9000 X8.862 Y-5.194
G1 F1320 X-5.194 Y8.862 E80.16860
G0 F9000 X-4.630 Y8.862
G1 F1320 X8.862 Y-4.630 E80.80164
G0 F9000 X8.862 Y-4.065
G1 F1320 X-4.065 Y8.862 E81.40816
G0 F9000 X-3.501 Y8.862
G1 F1320 X8.862 Y-3.501 E81.98823
G0 F9000 X8.862 Y-2.937
G1 F1320 X-2.937 Y8.862 E82.54183
G0 F9000 X-2.373 Y8.862
G1 F1320 X8.862 Y-2.373 E83.06897
G0 F9000 X8.862 Y-1.808
G1 F1320 X-1.808 Y8.862 E83.56960
G0 F9000 X-1.244 Y8.862
G1 F1320 X8.862 Y-1.244 E84.04376
G0 F9000 X8.862 Y-0.680
G1 F1320 X-0.680 Y8.862 E84.49147
G0 F9000 X-0.115 Y8.862
G1 F1320 X8.862 Y-0.115 E84.91266
G0 F9000 X8.862 Y0.448
G1 F1320 X0.448 Y8.862 E85.30744
G0 F9000 X1.012 Y8.862
G1 F1320 X8.862 Y1.012 E85.67576
G0 F9000 X8.862 Y1.576
G1 F1320 X1.576 Y8.862 E86.01761
G0 F9000 X2.141 Y8.862
G1 F1320 X8.862 Y2.141 E86.33296
G0 F9000 X8.862 Y2.705
G1 F1320 X2.705 Y8.862 E86.62184
G0 F9000 X3.269 Y8.862
G1 F1320 X8.862 Y3.269 E86.88426
G0 F9000 X8.862 Y3.833
G1 F1320 X3.833 Y8.862 E87.12022
G0 F9000 X4.398 Y8.862
G1 F1320 X8.862 Y4.398 E87.32966
G0 F9000 X8.862 Y4.962
G1 F1320 X4.962 Y8.862 E87.51265
G0 F9000 X5.526 Y8.862
G1 F1320 X8.862 Y5.526 E87.66917
G0 F9000 X8.862 Y6.091
G1 F1320 X6.091 Y8.862 E87.79919
G0 F9000 X6.655 Y8.862
G1 F1320 X8.862 Y6.655 E87.90274
G0 F9000 X8.862 Y7.219
G1 F1320 X7.219 Y8.862 E87.97983
G0 F9000 X7.783 Y8.862
G1 F1320 X8.862 Y7.783 E88.03045
G0 F9000 X8.862 Y8.348
G1 F1320 X8.348 Y8.862 E88.05457
G0 F9000 X-8.862 Y8.017
G1 F1320 X8.017 Y-8.862 E88.84652
G0 F9000 X7.452 Y-8.862
G1 F1320 X-8.862 Y7.452 E89.61196
G0 F9000 X-8.862 Y6.888
G1 F1320 X6.888 Y-8.862 E90.35094
G0 F9000 X6.324 Y-8.862
G1 F1320 X-8.862 Y6.324 E91.06346
G0 F9000 X-8.862 Y5.760
G1 F1320 X5.760 Y-8.862 E91.74951
G0 F9000 X5.195 Y-8.862
G1 F1320 X-8.862 Y5.195 E92.40906
G0 F9000 X-8.862 Y4.631
G1 F1320 X4.631 Y-8.862 E93.04214
G0 F9000 X4.067 Y-8.862
G1 F1320 X-8.862 Y4.067 E93.64876
G0 F9000 X-8.862 Y3.503
G1 F1320 X3.503 Y-8.862 E94.22892
G0 F9000 X2.938 Y-8.862
G1 F1320 X-8.862 Y2.938 E94.78257
G0 F9000 X-8.862 Y2.374
G1 F1320 X2.374 Y-8.862 E95.30975
G0 F9000 X1.810 Y-8.862
G1 F1320 X-8.862 Y1.810 E95.81048
G0 F9000 X-8.862 Y1.245
G1 F1320 X1.245 Y-8.862 E96.28469
G0 F9000 X0.681 Y-8.862
G1 F1320 X-8.862 Y0.681 E96.73244
G0 F9000 X-8.862 Y0.117
G1 F1320 X0.117 Y-8.862 E97.15373
G0 F9000 X-0.446 Y-8.862
G1 F1320 X-8.862 Y-0.446 E97.54860
G0 F9000 X-8.862 Y-1.011
G1 F1320 X-1.011 Y-8.862 E97.91697
G0 F9000 X-1.575 Y-8.862
G1 F1320 X-8.862 Y-1.575 E98.25887
G0 F9000 X-8.862 Y-2.139
G1 F1320 X-2.139 Y-8.862 E98.57431
G0 F9000 X-2.703 Y-8.862
G1 F1320 X-8.862 Y-2.703 E98.86328
G0 F9000 X-8.862 Y-3.268
G1 F1320 X-3.268 Y-8.862 E99.12575
G0 F9000 X-3.832 Y-8.862
G1 F1320 X-8.862 Y-3.832 E99.36175
G0 F9000 X-8.862 Y-4.396
G1 F1320 X-4.396 Y-8.862 E99.57130
G0 F9000 X-4.961 Y-8.862
G1 F1320 X-8.862 Y-4.961 E99.75433
G0 F9000 X-8.862 Y-5.525
G1 F1320 X-5.525 Y-8.862 E99.91090
G0 F9000 X-6.089 Y-8.862
G1 F1320 X-8.862 Y-6.089 E100.04101
G0 F9000 X-8.862 Y-6.653
G1 F1320 X-6.653 Y-8.862 E100.14465
G0 F9000 X-7.218 Y-8.862
G1 F1320 X-8.862 Y-7.218 E100.22179
G0 F9000 X-8.862 Y-7.782
G1 F1320 X-7.782 Y-8.862 E100.27246
G0 F9000 X-8.346 Y-8.862
G1 F1320 X-8.862 Y-8.346 E100.29667
;LAYER:2
G0 F9000 X-9.003 Y-9.003 Z0.700
;TYPE:WALL-INNER
G1 F1500 X9.003 Y-9.003 E100.89405
G1 X9.003 Y9.003 E101.49144
G1 X-9.003 Y9.003 E102.08882
G1 X-9.003 Y-9.003 E102.68621
G0 F9000 X-9.402 Y-9.402
G1 F1500 X9.402 Y-9.402 E103.31007
G1 X9.402 Y9.402 E103.93393
G1 X-9.402 Y9.402 E104.55779
G1 X-9.402 Y-9.402 E105.18165
G0 F9000 X-9.801 Y-9.801
;TYPE:WALL-OUTER
G1 F1500 X9.801 Y-9.801 E105.83198
G1 X9.801 Y9.801 E106.48232
G1 X-9.801 Y9.801 E107.13265
G1 X-9.801 Y-9.801 E107.78299
G0 F9000 X-9.501 Y-9.591
G0 X-8.581 Y-8.862
;TYPE:SKIN
G1 F1500 X8.862 Y8.581 E108.60140
G0 F9000 X8.580 Y8.862
G1 F1500 X-8.862 Y-8.580 E109.41977
G0 F9000 X-8.862 Y-8.015
G1 F1500 X8.015 Y8.862 E110.21163
G0 F9000 X7.451 Y8.862
G1 F1500 X-8.862 Y-7.451 E110.97702
G0 F9000 X-8.862 Y-6.887
G1 F1500 X6.887 Y8.862 E111.71596
G0 F9000 X6.322 Y8.862
G1 F1500 X-8.862 Y-6.322 E112.42838
G0 F9000 X-8.862 Y-5.758
G1 F1500 X5.758 Y8.862 E113.11434
G0 F9000 X5.194 Y8.862
G1 F1500 X-8.862 Y-5.194 E113.77384
G0 F9000 X-8.862 Y-4.630
G1 F1500 X4.630 Y8.862 E114.40687
G0 F9000 X4.065 Y8.862
G1 F1500 X-8.862 Y-4.065 E115.01340
G0 F9000 X-8.862 Y-3.501
G1 F1500 X3.501 Y8.862 E115.59346
G0 F9000 X2.937 Y8.862
G1 F1500 X-8.862 Y-2.937 E116.14707
G0 F9000 X-8.862 Y-2.373
G1 F1500 X2.373 Y8.862 E116.67420
G0 F9000 X1.808 Y8.862
G1 F1500 X-8.862 Y-1.808 E117.17483
G0 F9000 X-8.862 Y-1.244
G1 F1500 X1.244 Y8.862 E117.64900
G0 F9000 X0.680 Y8.862
G1 F1500 X-8.862 Y-0.680 E118.09671
G0 F9000 X-8.862 Y-0.115
G1 F1500 X0.115 Y8.862 E118.51790
G0 F9000 X-0.448 Y8.862
G1 F1500 X-8.862 Y0.448 E118.91268
G0 F9000 X-8.862 Y1.012
G1 F1500 X-1.012 Y8.862 E119.28100
G0 F9000 X-1.576 Y8.862
G1 F1500 X-8.862 Y1.576 E119.62285
G0 F9000 X-8.862 Y2.141
G1 F1500 X-2.141 Y8.862 E119.93820
G0 F9000 X-2.705 Y8.862
G1 F1500 X-8.862 Y2.705 E120.22708
G0 F9000 X-8.862 Y3.269
G1 F1500 X-3.269 Y8.862 E120.48950
G0 F9000 X-3.833 Y8.862
G1 F1500 X-8.862 Y3.833 E120.72546
G0 F9000 X-8.862 Y4.398
G1 F1500 X-4.398 Y8.862 E120.93490
G0 F9000 X-4.962 Y8.862
G1 F1500 X-8.862 Y4.962 E121.11789
G0 F9000 X-8.862 Y5.526
G1 F1500 X-5.526 Y8.862 E121.27441
G0 F9000 X-6.091 Y8.862
G1 F1500 X-8.862 Y6.091 E121.40443
G0 F9000 X-8.862 Y6.655
G1 F1500 X-6.655 Y8.862 E121.50798
G0 F9000 X-7.219 Y8.862
G1 F1500 X-8.862 Y7.219 E121.58506
G0 F9000 X-8.862 Y7.783
G1 F1500 X-7.783 Y8.862 E121.63569
G0 F9000 X-8.348 Y8.862
G1 F1500 X-8.862 Y8.348 E121.65981
G0 F9000 X-8.017 Y-8.862
G1 F1500 X8.862 Y8.017 E122.45176
G0 F9000 X8.862 Y7.452
G1 F1500 X-7.452 Y-8.862 E123.21720
G0 F9000 X-6.888 Y-8.862
G1 F1500 X8.862 Y6.888 E123.95618
G0 F9000 X8.862 Y6.324
G1 F1500 X-6.324 Y-8.862 E124.66870
G0 F9000 X-5.760 Y-8.862
G1 F1500 X8.862 Y5.760 E125.35475
G0 F9000 X8.862 Y5.195
G1 F1500 X-5.195 Y-8.862 E126.01430
G0 F9000 X-4.631 Y-8.862
G1 F1500 X8.862 Y4.631 E126.64738
G0 F9000 X8.862 Y4.067
G1 F1500 X-4.067 Y-8.862 E127.25400
G0 F9000 X-3.503 Y-8.862
G1 F1500 X8.862 Y3.503 E127.83416
G0 F9000 X8.862 Y2.938
G1 F1500 X-2.938 Y-8.862 E128.38781
G0 F9000 X-2.374 Y-8.862
G1 F1500 X8.862 Y2.374 E128.91499
G0 F9000 X8.862 Y1.810
G1 F1500 X-1.810 Y-8.862 E129.41571
G0 F9000 X-1.245 Y-8.862
G1 F1500 X8.862 Y1.245 E129.88993
G0 F9000 X8.862 Y0.681
G1 F1500 X-0.681 Y-8.862 E130.33768
G0 F9000 X-0.117 Y-8.862
G1 F1500 X8.862 Y0.117 E130.75897
G0 F9000 X8.862 Y-0.446
G1 F1500 X0.446 Y-8.862 E131.15384
G0 F9000 X1.011 Y-8.862
G1 F1500 X8.862 Y-1.011 E131.52221
G0 F9000 X8.862 Y-1.575
G1 F1500 X1.575 Y-8.862 E131.86411
G0 F9000 X2.139 Y-8.862
G1 F1500 X8.862 Y-2.139 E132.17955
G0 F9000 X8.862 Y-2.703
G1 F1500 X2.703 Y-8.862 E132.46852
G0 F9000 X3.268 Y-8.862
G1 F1500 X8.862 Y-3.268 E132.73099
G0 F9000 X8.862 Y-3.832
G1 F1500 X3.832 Y-8.862 E132.96699
G0 F9000 X4.396 Y-8.862
G1 F1500 X8.862 Y-4.396 E133.17653
G0 F9000 X8.862 Y-4.961
G1 F1500 X4.961 Y-8.862 E133.35957
G0 F9000 X5.525 Y-8.862
G1 F1500 X8.862 Y-5.525 E133.51614
G0 F9000 X8.862 Y-6.089
G1 F1500 X6.089 Y-8.862 E133.64624
G0 F9000 X6.653 Y-8.862
G1 F1500 X8.862 Y-6.653 E133.74989
G0 F9000 X8.862 Y-7.218
G1 F1500 X7.218 Y-8.862 E133.82702
G0 F9000 X7.782 Y-8.862
G1 F1500 X8.862 Y-7.782 E133.87770
G0 F9000 X8.862 Y-8.346
G1 F1500 X8.346 Y-8.862 E133.90191
;LAYER:3
G0 F9000 X9.003 Y-9.003 Z0.900
;TYPE:WALL-INNER
G1 F1620 X9.003 Y9.003 E134.49929
G1 X-9.003 Y9.003 E135.09668
G1 X-9.003 Y-9.003 E135.69406
G1 X9.003 Y-9.003 E136.29145
G0 F9000 X9.402 Y-9.402
G1 F1620 X9.402 Y9.402 E136.91531
G1 X-9.402 Y9.402 E137.53917
G1 X-9.402 Y-9.402 E138.16303
G1 X9.402 Y-9.402 E138.78689
G0 F9000 X9.801 Y-9.801
;TYPE:WALL-OUTER
G1 F1620 X9.801 Y9.801 E139.43722
G1 X-9.801 Y9.801 E140.08756
G1 X-9.801 Y-9.801 E140.73789
G1 X9.801 Y-9.801 E141.38823
G0 F9000 X9.501 Y-9.591
G0 X8.581 Y-8.862
;TYPE:SKIN
G1 F1620 X-8.862 Y8.581 E142.20664
G0 F9000 X-8.580 Y8.862
G1 F1620 X8.862 Y-8.580 E143.02501
G0 F9000 X8.862 Y-8.015
G1 F1620 X-8.015 Y8.862 E143.81687
G0 F9000 X-7.451 Y8.862
G1 F1620 X8.862 Y-7.451 E144.58226
G0 F9000 X8.862 Y-6.887
G1 F1620 X-6.887 Y8.862 E145.32119
G0 F9000 X-6.322 Y8.862
G1 F1620 X8.862 Y-6.322 E146.03362
G0 F9000 X8.862 Y-5.758
G1 F1620 X-5.758 Y8.862 E146.71958
G0 F9000 X-5.194 Y8.862
G1 F1620 X8.862 Y-5.194 E147.37908
G0 F9000 X8.862 Y-4.630
G1 F1620 X-4.630 Y8.862 E148.01211
G0 F9000 X-4.065 Y8.862
G1 F1620 X8.862 Y-4.065 E148.61864
G0 F9000 X8.862 Y-3.501
G1 F1620 X-3.501 Y8.862 E149.19870
G0 F9000 X-2.937 Y8.862
G1 F1620 X8.862 Y-2.937 E149.75230
G0 F9000 X8.862 Y-2.373
G1 F1620 X-2.373 Y8.862 E150.27944
G0 F9000 X-1.808 Y8.862
G1 F1620 X8.862 Y-1.808 E150.78007
G0 F9000 X8.862 Y-1.244
G1 F1620 X-1.244 Y8.862 E151.25424
G0 F9000 X-0.680 Y8.862
G1 F1620 X8.862 Y-0.680 E151.70194
G0 F9000 X8.862 Y-0.115
G1 F1620 X-0.115 Y8.862 E152.12314
G0 F9000 X0.448 Y8.862
G1 F1620 X8.862 Y0.448 E152.51792
G0 F9000 X8.862 Y1.012
G1 F1620 X1.012 Y8.862 E152.88624
G0 F9000 X1.576 Y8.862
G1 F1620 X8.862 Y1.576 E153.22809
G0 F9000 X8.862 Y2.141
G1 F1620 X2.141 Y8.862 E153.54343
G0 F9000 X2.705 Y8.862
G1 F1620 X8.862 Y2.705 E153.83232
G0 F9000 X8.862 Y3.269
G1 F1620 X3.269 Y8.862 E154.09474
G0 F9000 X3.833 Y8.862
G1 F1620 X8.862 Y3.833 E154.33069
G0 F9000 X8.862 Y4.398
G1 F1620 X4.398 Y8.862 E154.54014
G0 F9000 X4.962 Y8.862
G1 F1620 X8.862 Y4.962 E154.72313
G0 F9000 X8.862 Y5.526
G1 F1620 X5.526 Y8.862 E154.87965
G0 F9000 X6.091 Y8.862
G1 F1620 X8.862 Y6.091 E155.00966
G0 F9000 X8.862 Y6.655
G1 F1620 X6.655 Y8.862 E155.11321
G0 F9000 X7.219 Y8.862
G1 F1620 X8.862 Y7.219 E155.19030
G0 F9000 X8.862 Y7.783
G1 F1620 X7.783 Y8.862 E155.24093
G0 F9000 X8.348 Y8.862
G1 F1620 X8.862 Y8.348 E155.26505
G0 F9000 X8.017 Y-8.862
G1 F1620 X-8.862 Y8.017 E156.05700
G0 F9000 X-8.862 Y7.452
G1 F1620 X7.452 Y-8.862 E156.82244
G0 F9000 X6.888 Y-8.862
G1 F1620 X-8.862 Y6.888 E157.56142
G0 F9000 X-8.862 Y6.324
G1 F1620 X6.324 Y-8.862 E158.27394
G0 F9000 X5.760 Y-8.862
G1 F1620 X-8.862 Y5.760 E158.95999
G0 F9000 X-8.862 Y5.195
G1 F1620 X5.195 Y-8.862 E159.61954
G0 F9000 X4.631 Y-8.862
G1 F1620 X-8.862 Y4.631 E160.25262
G0 F9000 X-8.862 Y4.067
G1 F1620 X4.067 Y-8.862 E160.85924
G0 F9000 X3.503 Y-8.862
G1 F1620 X-8.862 Y3.503 E161.43940
