; Generated by Kiri:Moto 1.4.3
; Thu May 30 2019 12:11:39 GMT+0300 (Eastern European Summer Time)
; Bed left:0 right:300 top:175 bottom:0
; --- process ---
; processName = default
; outputOriginCenter = false
; outputInvertX = false
; outputInvertY = false
; sliceHeight = 0.25
; sliceShells = 3
; sliceShellSpacing = 1
; sliceFillAngle = 45
; sliceFillOverlap = 0.3
; sliceFillSparse = 0.01
; sliceFillType = hex
; sliceSupportEnable = false
; sliceSupportDensity = 0.25
; sliceSupportOffset = 1
; sliceSupportGap = 1
; sliceSupportSize = 10
; sliceSupportArea = 1
; sliceSupportExtra = 0
; sliceSupportSpan = 6
; sliceSolidMinArea = 1
; sliceSolidLayers = 3
; sliceBottomLayers = 3
; sliceTopLayers = 3
; firstSliceHeight = 0.25
; firstLayerRate = 30
; firstLayerFillRate = 40
; firstLayerPrintMult = 1
; outputRaft = false
; outputRaftSpacing = 0.2
; firstLayerNozzleTemp = 0
; firstLayerBedTemp = 0
; outputTemp = 200
; outputFanMax = 255
; outputBedTemp = 0
; outputFeedrate = 80
; outputFinishrate = 60
; outputSeekrate = 100
; outputShellMult = 1.2
; outputFillMult = 1.2
; outputSparseMult = 1.2
; outputFanLayer = 1
; outputRetractDist = 1
; outputRetractSpeed = 40
; outputRetractDwell = 30
; outputBrimCount = 2
; outputBrimOffset = 2
; outputShortPoly = 50
; outputMinSpeed = 15
; outputCoastDist = 0
; outputWipeDistance = 0
; sliceMinHeight = 0
; antiBacklash = 1
; zHopDistance = 0.2
; outputLayerRetract = false
; gcodeNozzle = 0
; gcodePauseLayers = null
; outputClockwise = true
; --- startup ---
M104 S200 T0     ; set extruder temperature
M140 S0 T0 ; set bed temperature
G90                      ; set absolute positioning mode
M83                      ; set relative positioning for extruder
M107                     ; turn off filament cooling fan
G28                      ; home axes
G29                      ; level bed
G92 X0 Y0 Z0 E0          ; reset all axes positions
G1 X0 Y0 Z0.25 F180      ; move xy to 0,0 and z 0.25mm over bed
G92 E0                   ; zero the extruded
M190 S0 T0 ; wait for bed to reach target temp
M109 S200 T0     ; wait for extruder to reach target temp
G1 E15 F200              ; purge 15mm from extruder
G92 E0                   ; zero the extruded
G1 F225                  ; set feed speed
 ; retract 1
G1 E-1 F2400
 ; zhop up
G1 Z0.200 F6000
; --- layer 0 (0.250 @ 0.00) ---
G1 Z0.250
G1 X150.609 Y88.465
 ; zhop down
G1 Z0.250
 ; engage 1
G1 E1 F2400
G4 P30
G1 X151.419 Y87.699 E0.044 F1298
G1 X151.815 Y86.986 E0.032
G1 X152.005 Y86.472 E0.021
G1 X152.135 Y85.937 E0.022
G1 X152.202 Y85.407 E0.021
G1 X152.213 Y84.869 E0.021
G1 X152.102 Y83.977 E0.035
G1 X151.801 Y83.074 E0.037
G1 X151.132 Y82.002 E0.05
G1 X151.007 Y81.743 E0.011
G1 X150.180 Y81.052 E0.042
G1 X149.200 Y80.759 E0.04
G1 X147.934 Y80.905 E0.05
G1 X146.996 Y81.763 E0.05
G1 X146.510 Y82.733 E0.043
G1 X146.308 Y83.949 E0.048
G1 X146.308 Y84.907 E0.038
G1 X146.421 Y85.735 E0.033
G1 X146.710 Y86.669 E0.038
G1 X147.164 Y87.531 E0.038
G1 X147.893 Y88.303 E0.042
G1 X148.721 Y88.683 E0.036
G1 X149.615 Y88.766 E0.035
G1 X150.609 Y88.465 E0.041
G1 X150.815 Y88.821 F6000
G1 X151.739 Y87.947 E0.05 F1344
G1 X152.179 Y87.154 E0.036
G1 X152.389 Y86.589 E0.024
G1 X152.529 Y86.010 E0.023
G1 X152.602 Y85.436 E0.023
G1 X152.614 Y84.848 E0.023
G1 X152.494 Y83.888 E0.038
G1 X152.165 Y82.903 E0.041
G1 X151.483 Y81.809 E0.051
G1 X151.330 Y81.491 E0.014
G1 X150.373 Y80.692 E0.049
G1 X149.235 Y80.352 E0.047
G1 X147.760 Y80.523 E0.058
G1 X146.671 Y81.517 E0.058
G1 X146.126 Y82.608 E0.048
G1 X145.908 Y83.916 E0.052
G1 X145.908 Y84.934 E0.04
G1 X146.029 Y85.822 E0.035
G1 X146.339 Y86.823 E0.041
G1 X146.836 Y87.766 E0.042
G1 X147.656 Y88.634 E0.047
G1 X148.617 Y89.075 E0.041
G1 X149.656 Y89.171 E0.041
G1 X150.815 Y88.821 E0.047
 ; retract 1
G1 E-1 F2400
 ; zhop up
G1 Z0.450 F6000
G1 X150.815 Y88.821
G1 X149.372 Y86.332
 ; zhop down
G1 Z0.250
 ; engage 1
G1 E1 F2400
G4 P30
G1 X149.501 Y86.210 E0.007 F1024
G1 X149.628 Y85.981 E0.01
G1 X149.706 Y85.771 E0.009
G1 X149.771 Y85.503 E0.011
G1 X149.805 Y85.230 E0.011
G1 X149.810 Y84.993 E0.009
G1 X149.750 Y84.510 E0.019
G1 X149.610 Y84.090 E0.017
G1 X149.297 Y83.580 E0.023
G1 X149.115 Y83.346 E0.012
G1 X149.070 Y83.252 E0.004
G1 X149.020 Y83.210 E0.003
G1 X148.985 Y83.200 E0.001
G1 X148.980 Y83.200 E0
G1 X148.943 Y83.234 E0.002
G1 X148.818 Y83.484 E0.011
G1 X148.708 Y84.147 E0.026
G1 X148.708 Y84.745 E0.023
G1 X148.772 Y85.215 E0.019
G1 X148.937 Y85.747 E0.022
G1 X149.134 Y86.122 E0.017
G1 X149.318 Y86.316 E0.01
G1 X149.350 Y86.331 E0.001
G1 X149.369 Y86.333 E0.001
G1 X149.372 Y86.332 E0
G1 X149.328 Y85.631 F6000
G1 X149.377 Y85.431 E0.008 F958
G1 X149.406 Y85.200 E0.009
G1 X149.410 Y85.013 E0.007
G1 X149.358 Y84.599 E0.016
G1 X149.245 Y84.260 E0.014
G1 X149.127 Y84.068 E0.009
G1 X149.108 Y84.180 E0.004
G1 X149.108 Y84.718 E0.021
G1 X149.164 Y85.128 E0.016
G1 X149.308 Y85.593 E0.019
G1 X149.328 Y85.631 E0.002
; --- layer 1 (0.250 @ 0.25) ---
M106 S255
G1 Z0.500 F6000
G1 X149.328 Y85.631
G1 X150.398 Y85.838
G1 X150.445 Y85.034 E0.032 F1561
G1 X150.399 Y84.535 E0.02
G1 X150.304 Y84.118 E0.017
G1 X150.069 Y83.556 E0.024
G1 X149.573 Y82.814 E0.035
G1 X149.374 Y82.662 E0.01
G1 X149.078 Y82.582 E0.012
G1 X148.666 Y82.689 E0.017
G1 X148.410 Y82.844 E0.012
G1 X148.285 Y82.986 E0.007
G1 X148.175 Y83.236 E0.011
G1 X148.090 Y84.029 E0.031
G1 X148.097 Y85.074 E0.041
G1 X148.215 Y85.860 E0.031
G1 X148.492 Y86.686 E0.034
G1 X148.944 Y87.434 E0.034
G1 X149.289 Y87.748 E0.018
G1 X149.434 Y87.786 E0.006
G1 X149.526 Y87.760 E0.004
G1 X149.712 Y87.602 E0.01
G1 X150.018 Y87.134 E0.022
G1 X150.070 Y87.026 E0.005
G1 X150.292 Y86.382 E0.027
G1 X150.398 Y85.838 E0.022
G1 X150.000 Y85.788 F6000
G1 X150.044 Y85.040 E0.029 F1652
G1 X150.003 Y84.598 E0.017
G1 X149.921 Y84.240 E0.014
G1 X149.715 Y83.746 E0.021
G1 X149.277 Y83.091 E0.031
G1 X149.194 Y83.028 E0.004
G1 X149.076 Y82.996 E0.005
G1 X148.823 Y83.061 E0.01
G1 X148.670 Y83.154 E0.007
G1 X148.626 Y83.204 E0.003
G1 X148.566 Y83.340 E0.006
G1 X148.490 Y84.049 E0.028
G1 X148.497 Y85.043 E0.039
G1 X148.605 Y85.766 E0.029
G1 X148.857 Y86.517 E0.031
G1 X149.257 Y87.178 E0.03
G1 X149.417 Y87.323 E0.008
G1 X149.669 Y86.938 E0.018
G1 X149.699 Y86.874 E0.003
G1 X149.905 Y86.278 E0.025
G1 X150.000 Y85.788 E0.02
G1 X149.603 Y85.738 F6000
G1 X149.643 Y85.047 E0.027 F1418
G1 X149.607 Y84.661 E0.015
G1 X149.539 Y84.363 E0.012
G1 X149.361 Y83.936 E0.018
G1 X149.018 Y83.424 E0.024
G1 X148.980 Y83.434 E0.002
G1 X148.957 Y83.448 E0.001
G1 X148.890 Y84.069 E0.024
G1 X148.897 Y85.011 E0.037
G1 X148.996 Y85.672 E0.026
G1 X149.222 Y86.348 E0.028
G1 X149.368 Y86.589 E0.011
G1 X149.518 Y86.172 E0.017
G1 X149.603 Y85.738 E0.017
G1 X149.313 Y84.631 F6000
G1 X149.175 Y84.769 E0.008 F4800
G1 X149.288 Y85.222 E0.014
; --- layer 2 (0.250 @ 0.50) ---
G1 Z0.750 F6000
G1 X149.288 Y85.222
G1 X150.831 Y85.187
G1 X150.815 Y84.674 E0.02 F1755
G1 X150.724 Y84.116 E0.022
G1 X150.531 Y83.548 E0.024
G1 X150.125 Y82.874 E0.031
G1 X149.320 Y82.185 E0.042
G1 X149.265 Y82.168 E0.002
G1 X149.040 Y82.210 E0.009
G1 X148.584 Y82.479 E0.021
G1 X148.269 Y82.577 E0.013
G1 X147.878 Y82.892 E0.02
G1 X147.797 Y83.044 E0.007
G1 X147.645 Y83.692 E0.026
G1 X147.546 Y85.695 E0.079
G1 X147.590 Y86.348 E0.026
G1 X147.736 Y87.003 E0.026
G1 X147.931 Y87.462 E0.02
G1 X148.044 Y87.668 E0.009
G1 X148.290 Y87.997 E0.016
G1 X148.597 Y88.301 E0.017
G1 X149.016 Y88.594 E0.02
G1 X149.322 Y88.705 E0.013
G1 X149.490 Y88.704 E0.007
G1 X149.561 Y88.682 E0.003
G1 X149.653 Y88.630 E0.004
G1 X150.026 Y88.212 E0.022
G1 X150.289 Y87.723 E0.022
G1 X150.529 Y87.067 E0.027
G1 X150.764 Y85.993 E0.043
G1 X150.831 Y85.187 E0.032
G1 X150.430 Y85.177 F6000
G1 X150.416 Y84.712 E0.018 F1935
G1 X150.335 Y84.213 E0.02
G1 X150.166 Y83.718 E0.021
G1 X149.815 Y83.136 E0.027
G1 X149.180 Y82.592 E0.033
G1 X148.747 Y82.846 E0.02
G1 X148.461 Y82.936 E0.012
G1 X148.193 Y83.152 E0.013
G1 X148.175 Y83.185 E0.001
G1 X148.043 Y83.748 E0.023
G1 X147.947 Y85.691 E0.076
G1 X147.987 Y86.291 E0.024
G1 X148.118 Y86.880 E0.024
G1 X148.292 Y87.287 E0.017
G1 X148.381 Y87.451 E0.007
G1 X148.592 Y87.733 E0.014
G1 X148.855 Y87.992 E0.014
G1 X149.203 Y88.236 E0.017
G1 X149.391 Y88.305 E0.008
G1 X149.402 Y88.305 E0
G1 X149.410 Y88.301 E0
G1 X149.696 Y87.981 E0.017
G1 X149.923 Y87.559 E0.019
G1 X150.144 Y86.955 E0.025
G1 X150.367 Y85.934 E0.041
G1 X150.430 Y85.177 E0.03
G1 X150.030 Y85.167 F6000
G1 X150.017 Y84.751 E0.016 F1725
G1 X149.945 Y84.310 E0.017
G1 X149.801 Y83.888 E0.017
G1 X149.506 Y83.398 E0.022
G1 X149.137 Y83.082 E0.019
G1 X148.911 Y83.214 E0.01
G1 X148.653 Y83.296 E0.011
G1 X148.548 Y83.380 E0.005
G1 X148.441 Y83.807 E0.017
G1 X148.347 Y85.687 E0.074
G1 X148.384 Y86.233 E0.021
G1 X148.501 Y86.757 E0.021
G1 X148.652 Y87.113 E0.015
G1 X148.719 Y87.234 E0.005
G1 X148.895 Y87.470 E0.012
G1 X149.112 Y87.684 E0.012
G1 X149.301 Y87.817 E0.009
G1 X149.369 Y87.745 E0.004
G1 X149.558 Y87.394 E0.016
G1 X149.759 Y86.843 E0.023
G1 X149.971 Y85.874 E0.039
G1 X150.030 Y85.167 E0.028
 ; retract 1
G1 E-1 F2400
 ; zhop up
G1 Z0.950 F6000
G1 X149.784 Y82.590
G1 X148.784 Y83.590
 ; zhop down
G1 Z0.750
 ; engage 1
G1 E1 F2400
G4 P30
G1 X149.692 Y84.499 E0.05 F4800
G1 X149.748 Y85.120 E0.024
G1 X148.707 Y84.080 E0.058
G1 X148.681 Y84.619 E0.021
G1 X149.709 Y85.647 E0.057
G1 X149.628 Y86.131 E0.019
G1 X148.654 Y85.157 E0.054
G1 X148.629 Y85.698 E0.021
G1 X149.526 Y86.595 E0.05
G1 X149.393 Y87.028 E0.018
G1 X148.692 Y86.327 E0.039
; --- layer 3 (0.250 @ 0.75) ---
G1 Z1.000 F6000
G1 X148.692 Y86.327
G1 X146.777 Y86.364
G1 X146.800 Y86.637 E0.011 F1894
G1 X146.892 Y87.127 E0.02
G1 X147.005 Y87.463 E0.014
G1 X147.150 Y87.768 E0.013
G1 X147.318 Y88.030 E0.012
G1 X147.534 Y88.284 E0.013
G1 X147.778 Y88.501 E0.013
G1 X148.068 Y88.698 E0.014
G1 X148.472 Y88.897 E0.018
G1 X149.245 Y89.171 E0.032
G1 X149.479 Y89.194 E0.009
G1 X149.713 Y89.135 E0.009
G1 X149.797 Y89.075 E0.004
G1 X150.052 Y88.823 E0.014
G1 X150.335 Y88.382 E0.021
G1 X150.621 Y87.732 E0.028
G1 X150.853 Y86.995 E0.03
G1 X151.069 Y85.934 E0.042
G1 X151.140 Y85.129 E0.032
G1 X151.133 Y84.614 E0.02
G1 X151.025 Y83.885 E0.029
G1 X150.893 Y83.472 E0.017
G1 X150.640 Y82.983 E0.022
G1 X150.421 Y82.711 E0.014
G1 X149.342 Y81.919 E0.052
G1 X149.329 Y81.916 E0.001
G1 X149.152 Y81.941 E0.007
G1 X148.550 Y82.374 E0.029
G1 X147.738 Y82.794 E0.036
G1 X147.574 Y82.959 E0.009
G1 X147.312 Y83.553 E0.025
G1 X146.958 Y85.002 E0.058
G1 X146.790 Y85.942 E0.037
G1 X146.777 Y86.364 E0.017
G1 X147.178 Y86.354 F6000
G1 X147.197 Y86.583 E0.009 F2137
G1 X147.280 Y87.026 E0.018
G1 X147.376 Y87.312 E0.012
G1 X147.501 Y87.573 E0.011
G1 X147.641 Y87.792 E0.01
G1 X147.821 Y88.003 E0.011
G1 X148.024 Y88.185 E0.011
G1 X148.270 Y88.351 E0.012
G1 X148.627 Y88.527 E0.016
G1 X149.333 Y88.778 E0.029
G1 X149.449 Y88.789 E0.005
G1 X149.541 Y88.766 E0.004
G1 X149.739 Y88.570 E0.011
G1 X149.982 Y88.192 E0.018
G1 X150.246 Y87.591 E0.026
G1 X150.465 Y86.895 E0.029
G1 X150.672 Y85.876 E0.041
G1 X150.740 Y85.114 E0.03
G1 X150.733 Y84.646 E0.018
G1 X150.634 Y83.976 E0.027
G1 X150.522 Y83.625 E0.014
G1 X150.303 Y83.202 E0.019
G1 X150.143 Y83.003 E0.01
G1 X149.257 Y82.358 E0.043
G1 X148.760 Y82.716 E0.024
G1 X147.977 Y83.121 E0.035
G1 X147.909 Y83.189 E0.004
G1 X147.692 Y83.683 E0.021
G1 X147.350 Y85.085 E0.057
G1 X147.189 Y85.983 E0.036
G1 X147.178 Y86.354 E0.015
G1 X147.578 Y86.343 F6000
G1 X147.594 Y86.529 E0.007 F1932
G1 X147.668 Y86.926 E0.016
G1 X147.747 Y87.162 E0.01
G1 X147.851 Y87.378 E0.009
G1 X147.963 Y87.553 E0.008
G1 X148.107 Y87.723 E0.009
G1 X148.271 Y87.868 E0.009
G1 X148.471 Y88.005 E0.009
G1 X148.783 Y88.158 E0.014
G1 X149.374 Y88.368 E0.025
G1 X149.426 Y88.316 E0.003
G1 X149.629 Y88.002 E0.015
G1 X149.871 Y87.450 E0.024
G1 X150.077 Y86.795 E0.027
G1 X150.276 Y85.818 E0.039
G1 X150.339 Y85.099 E0.028
G1 X150.334 Y84.678 E0.016
G1 X150.243 Y84.067 E0.024
G1 X150.151 Y83.779 E0.012
G1 X149.966 Y83.422 E0.016
G1 X149.865 Y83.295 E0.006
G1 X149.256 Y82.852 E0.03
G1 X148.970 Y83.058 E0.014
G1 X148.237 Y83.437 E0.032
G1 X148.072 Y83.812 E0.016
G1 X147.741 Y85.168 E0.055
G1 X147.588 Y86.025 E0.034
G1 X147.578 Y86.343 E0.012
 ; retract 1
G1 E-1 F2400
 ; zhop up
G1 Z1.200 F6000
G1 X150.058 Y82.328
G1 X149.058 Y83.328
 ; zhop down
G1 Z1.000
 ; engage 1
G1 E1 F2400
G4 P30
G1 X149.988 Y84.258 E0.052 F4800
G1 X149.877 Y84.713 E0.017
G1 X149.889 Y85.290 E0.015
G1 X149.837 Y85.804 E0.019
G1 X149.747 Y86.280 E0.011
G1 X149.642 Y86.740 E0.015
G1 X149.507 Y87.171 E0.01
G1 X149.460 Y87.690 E0.02
G1 X147.866 Y86.096 E0.088
G1 X147.912 Y86.708 E0.024
G1 X149.221 Y88.016 E0.073
 ; retract 1
G1 E-1 F2400
 ; zhop up
G1 Z1.200 F6000
G1 X149.778 Y82.613
G1 X148.778 Y83.613
 ; zhop down
G1 Z1.000
 ; engage 1
G1 E1 F2400
G4 P30
G1 X148.685 Y83.520 E0.005 F4800
G1 X148.547 Y83.948 E0.01
G1 X148.679 Y84.646 F6000
G1 X148.259 Y84.226 E0.023 F4800
G1 X148.148 Y84.681 E0.018
G1 X148.653 Y85.185 E0.028
G1 X148.631 Y85.729 E0.021
G1 X148.037 Y85.135 E0.033
G1 X147.946 Y85.610 E0.019
G1 X148.700 Y86.364 E0.042
G1 X148.629 Y85.695 F6000
G1 X149.746 Y85.050 E0.051 F4800
; --- layer 4 (0.250 @ 1.00) ---
G1 Z1.250 F6000
G1 X149.746 Y85.050
G1 X151.390 Y85.305
G1 X151.405 Y84.584 E0.028 F1989
G1 X151.305 Y83.781 E0.032
G1 X151.110 Y83.169 E0.025
G1 X150.948 Y82.849 E0.014
G1 X150.486 Y82.324 E0.027
G1 X150.354 Y82.214 E0.007
G1 X149.348 Y81.716 E0.044
G1 X149.177 Y81.755 E0.007
G1 X148.660 Y82.266 E0.029
G1 X148.395 Y82.601 E0.017
G1 X148.282 Y82.670 E0.005
G1 X147.559 Y82.923 E0.03
G1 X147.294 Y83.209 E0.015
G1 X147.060 Y83.532 E0.016
G1 X146.804 Y83.804 E0.015
G1 X146.656 Y84.051 E0.011
G1 X146.433 Y84.723 E0.028
G1 X146.301 Y85.368 E0.026
G1 X146.266 Y85.780 E0.016
G1 X146.273 Y86.223 E0.017
G1 X146.309 Y86.568 E0.014
G1 X146.379 Y86.949 E0.015
G1 X146.495 Y87.343 E0.016
G1 X146.720 Y87.871 E0.022
G1 X147.040 Y88.337 E0.022
G1 X147.402 Y88.649 E0.019
G1 X149.413 Y89.337 E0.083
G1 X149.746 Y89.346 E0.013
G1 X149.960 Y89.258 E0.009
G1 X150.158 Y89.092 E0.01
G1 X150.350 Y88.845 E0.012
G1 X150.630 Y88.326 E0.023
G1 X150.971 Y87.432 E0.038
G1 X151.228 Y86.443 E0.04
G1 X151.390 Y85.305 E0.045
G1 X150.991 Y85.272 F6000
G1 X151.005 Y84.604 E0.026 F2273
G1 X150.912 Y83.867 E0.029
G1 X150.738 Y83.321 E0.022
G1 X150.614 Y83.075 E0.011
G1 X150.206 Y82.611 E0.024
G1 X150.134 Y82.551 E0.004
G1 X149.339 Y82.158 E0.035
G1 X148.958 Y82.533 E0.021
G1 X148.664 Y82.906 E0.019
G1 X148.454 Y83.034 E0.01
G1 X147.785 Y83.268 E0.028
G1 X147.603 Y83.464 E0.01
G1 X147.368 Y83.787 E0.016
G1 X147.125 Y84.046 E0.014
G1 X147.022 Y84.218 E0.008
G1 X146.820 Y84.826 E0.025
G1 X146.698 Y85.425 E0.024
G1 X146.667 Y85.794 E0.015
G1 X146.672 Y86.199 E0.016
G1 X146.705 Y86.511 E0.012
G1 X146.768 Y86.856 E0.014
G1 X146.872 Y87.208 E0.014
G1 X147.072 Y87.677 E0.02
G1 X147.340 Y88.068 E0.019
G1 X147.605 Y88.296 E0.014
G1 X149.485 Y88.939 E0.078
G1 X149.672 Y88.944 E0.007
G1 X149.750 Y88.912 E0.003
G1 X149.869 Y88.813 E0.006
G1 X150.014 Y88.626 E0.009
G1 X150.265 Y88.159 E0.021
G1 X150.589 Y87.310 E0.036
G1 X150.835 Y86.364 E0.038
G1 X150.991 Y85.272 E0.043
G1 X150.591 Y85.240 F6000
G1 X150.604 Y84.625 E0.024 F2070
G1 X150.520 Y83.954 E0.027
G1 X150.367 Y83.472 E0.02
G1 X150.280 Y83.301 E0.008
G1 X149.926 Y82.898 E0.021
G1 X149.914 Y82.888 E0.001
G1 X149.417 Y82.643 E0.022
G1 X149.257 Y82.800 E0.009
G1 X148.934 Y83.210 E0.02
G1 X148.626 Y83.397 E0.014
G1 X148.011 Y83.612 E0.026
G1 X147.913 Y83.718 E0.006
G1 X147.677 Y84.043 E0.016
G1 X147.446 Y84.289 E0.013
G1 X147.388 Y84.386 E0.004
G1 X147.207 Y84.930 E0.022
G1 X147.094 Y85.482 E0.022
G1 X147.067 Y85.808 E0.013
G1 X147.072 Y86.175 E0.014
G1 X147.102 Y86.454 E0.011
G1 X147.158 Y86.763 E0.012
G1 X147.249 Y87.072 E0.013
G1 X147.425 Y87.484 E0.018
G1 X147.641 Y87.799 E0.015
G1 X147.807 Y87.943 E0.009
G1 X149.557 Y88.541 E0.072
G1 X149.570 Y88.541 E0.001
G1 X149.579 Y88.533 E0
G1 X149.678 Y88.407 E0.006
G1 X149.901 Y87.993 E0.018
G1 X150.207 Y87.188 E0.034
G1 X150.443 Y86.285 E0.037
G1 X150.591 Y85.240 E0.041
 ; retract 1
G1 E-1 F2400
 ; zhop up
G1 Z1.450 F6000
G1 X149.176 Y82.851
G1 X148.176 Y83.851
