;Generated with Cura_SteamEngine 15.04.5
M109 S210.0
G28 ;Home
G29 ;Nivelacion
G1 Z15.0 F6000 ;Move the platform down 15mm
;Prime the extruder
G92 E0
G1 F200 E3
G92 E0
;Layer count: 157
;LAYER:0
M107
G0 F9000 X6.868 Y-1.236 Z0.250
;TYPE:SKIRT
G1 F900 X7.616 Y3.395 E0.19503
G1 X5.544 Y4.454 E0.29177
G1 X5.181 Y4.817 E0.31312
G1 X7.519 Y6.796 E0.44047
G1 X5.928 Y9.310 E0.56416
G1 X6.685 Y9.802 E0.60169
G1 X6.388 Y12.242 E0.70389
G1 X6.273 Y14.139 E0.78290
G1 X4.656 Y15.294 E0.86551
G1 X4.165 Y15.625 E0.89013
G1 X3.464 Y15.961 E0.92245
G1 X2.527 Y16.265 E0.96341
G1 X1.980 Y16.386 E0.98670
G1 X1.451 Y16.451 E1.00886
G1 X0.739 Y16.472 E1.03847
G1 X-0.212 Y16.396 E1.07814
G1 X-0.805 Y16.280 E1.10326
G1 X-1.741 Y15.993 E1.14396
G1 X-2.628 Y15.570 E1.18481
G1 X-3.379 Y15.081 E1.22207
G1 X-4.301 Y14.259 E1.27343
G1 X-4.958 Y13.381 E1.31902
G1 X-5.243 Y12.911 E1.34187
G1 X-5.673 Y11.990 E1.38413
G1 X-5.919 Y11.167 E1.41984
G1 X-6.037 Y10.474 E1.44907
G1 X-6.832 Y10.739 E1.48391
G1 X-6.832 Y5.530 E1.70047
G1 X-8.056 Y4.303 E1.77253
G1 X-7.670 Y3.371 E1.81447
G1 X-11.183 Y1.615 E1.97775
G1 X-7.432 Y-2.154 E2.19883
G1 X-7.432 Y-4.185 E2.28327
G1 X-4.632 Y-5.343 E2.40924
G1 X-4.632 Y-6.316 E2.44969
G1 X-5.451 Y-6.316 E2.48374
G1 X-5.640 Y-7.116 E2.51792
G1 X-10.051 Y-7.116 E2.70130
G1 X-7.454 Y-13.382 E2.98330
G1 X-7.826 Y-16.428 E3.11088
G1 X-3.506 Y-18.716 E3.31412
G1 X1.715 Y-18.716 E3.53119
G1 X2.750 Y-17.680 E3.59207
G1 X5.068 Y-16.524 E3.69976
G1 X5.068 Y-15.162 E3.75639
G1 X7.613 Y-12.618 E3.90599
G1 X6.068 Y-11.071 E3.99689
G1 X6.068 Y-3.957 E4.29266
G1 X6.868 Y-3.152 E4.33984
G1 X6.868 Y-1.236 E4.41950
G0 F9000 X6.468 Y-1.203
G1 F900 X7.175 Y3.172 E4.60375
G1 X5.303 Y4.129 E4.69116
G1 X4.590 Y4.842 E4.73308
G1 X6.995 Y6.876 E4.86403
G1 X5.379 Y9.431 E4.98972
G1 X6.257 Y10.002 E5.03327
G1 X5.988 Y12.218 E5.12607
G1 X5.885 Y13.924 E5.19713
G1 X4.428 Y14.965 E5.27158
G1 X3.966 Y15.277 E5.29475
G1 X3.315 Y15.589 E5.32477
G1 X2.422 Y15.879 E5.36380
G1 X1.913 Y15.991 E5.38547
G1 X1.421 Y16.052 E5.40608
G1 X0.749 Y16.071 E5.43403
G1 X-0.157 Y15.999 E5.47182
G1 X-0.707 Y15.891 E5.49512
G1 X-1.596 Y15.619 E5.53377
G1 X-2.432 Y15.220 E5.57228
G1 X-3.135 Y14.763 E5.60715
G1 X-4.005 Y13.987 E5.65561
G1 X-4.626 Y13.157 E5.69871
G1 X-4.890 Y12.722 E5.71987
G1 X-5.298 Y11.847 E5.76000
G1 X-5.528 Y11.076 E5.79345
G1 X-5.668 Y10.260 E5.82788
G1 X-5.662 Y10.135 E5.83308
G1 X-5.676 Y10.009 E5.83835
G1 X-5.673 Y9.931 E5.84159
G1 X-6.432 Y10.184 E5.87486
G1 X-6.432 Y5.364 E6.07525
G1 X-7.585 Y4.209 E6.14310
G1 X-7.159 Y3.179 E6.18944
G1 X-10.509 Y1.505 E6.34514
G1 X-7.032 Y-1.990 E6.55010
G1 X-7.032 Y-3.918 E6.63026
G1 X-4.232 Y-5.076 E6.75623
G1 X-4.232 Y-6.716 E6.82442
G1 X-5.135 Y-6.716 E6.86196
G1 X-5.324 Y-7.516 E6.89613
G1 X-9.452 Y-7.516 E7.06776
G1 X-7.044 Y-13.326 E7.32923
G1 X-7.396 Y-16.203 E7.44974
G1 X-3.407 Y-18.316 E7.63741
G1 X1.549 Y-18.316 E7.84346
G1 X2.516 Y-17.350 E7.90028
G1 X4.668 Y-16.277 E8.00026
G1 X4.668 Y-14.998 E8.05343
G1 X7.047 Y-12.618 E8.19334
G1 X5.668 Y-11.237 E8.27448
G1 X5.668 Y-3.860 E8.58118
G1 X5.609 Y-3.852 E8.58365
G1 X6.468 Y-2.987 E8.63433
G1 X6.468 Y-1.203 E8.70850
G0 F9000 X6.068 Y-1.171
G1 F900 X6.734 Y2.948 E8.88198
G1 X5.066 Y3.801 E8.95987
G1 X3.982 Y4.885 E9.02360
G1 X4.200 Y5.035 E9.03460
G1 X6.471 Y6.957 E9.15829
G1 X4.830 Y9.550 E9.28587
G1 X5.830 Y10.201 E9.33548
G1 X5.590 Y12.162 E9.41762
G1 X5.497 Y13.710 E9.48209
G1 X4.199 Y14.637 E9.54841
G1 X3.766 Y14.929 E9.57012
G1 X3.166 Y15.217 E9.59779
G1 X2.317 Y15.492 E9.63489
G1 X1.845 Y15.597 E9.65500
G1 X1.391 Y15.652 E9.67401
G1 X0.759 Y15.671 E9.70030
G1 X-0.103 Y15.603 E9.73625
G1 X-0.610 Y15.503 E9.75773
G1 X-1.450 Y15.245 E9.79426
G1 X-2.236 Y14.871 E9.83045
G1 X-2.892 Y14.444 E9.86300
G1 X-3.709 Y13.716 E9.90849
G1 X-4.294 Y12.933 E9.94913
G1 X-4.536 Y12.534 E9.96853
G1 X-4.923 Y11.705 E10.00656
G1 X-5.138 Y10.984 E10.03784
G1 X-5.267 Y10.236 E10.06940
G1 X-5.261 Y10.119 E10.07427
G1 X-5.275 Y9.995 E10.07946
G1 X-5.251 Y9.369 E10.10550
G1 X-6.032 Y9.629 E10.13973
G1 X-6.032 Y5.199 E10.32391
G1 X-7.113 Y4.116 E10.38752
G1 X-6.646 Y2.988 E10.43828
G1 X-9.835 Y1.394 E10.58650
G1 X-6.632 Y-1.824 E10.77527
G1 X-6.632 Y-3.650 E10.85118
G1 X-3.832 Y-4.808 E10.97716
G1 X-3.832 Y-7.116 E11.07311
G1 X-4.818 Y-7.116 E11.11411
G1 X-5.007 Y-7.916 E11.14828
G1 X-8.853 Y-7.916 E11.30818
G1 X-6.634 Y-13.270 E11.54913
G1 X-6.965 Y-15.978 E11.66256
G1 X-3.307 Y-17.916 E11.83467
G1 X1.383 Y-17.916 E12.02965
G1 X2.278 Y-17.021 E12.08228
G1 X4.268 Y-16.029 E12.17472
G1 X4.268 Y-14.832 E12.22449
G1 X6.482 Y-12.618 E12.35466
G1 X5.268 Y-11.402 E12.42610
G1 X5.268 Y-4.207 E12.72523
G1 X4.764 Y-4.135 E12.74640
G1 X6.068 Y-2.822 E12.82333
G1 X6.068 Y-1.171 E12.89197
G1 F2400 E8.39197
G0 F9000 X-0.469 Y7.519
;TYPE:WALL-OUTER
G1 F2400 E12.89197
G1 F900 X-0.787 Y7.795 E12.90948
G1 X-1.150 Y8.195 E12.93194
G1 X-1.248 Y8.352 E12.93963
G1 X-1.502 Y8.919 E12.96546
G1 X-1.500 Y8.959 E12.96713
G1 X-1.563 Y9.119 E12.97428
G1 X-1.590 Y9.251 E12.97988
G1 X-1.593 Y9.301 E12.98196
G1 X-1.617 Y9.375 E12.98519
G1 X-1.647 Y9.698 E12.99868
G1 X-1.647 Y9.721 E12.99964
G1 X-1.665 Y9.823 E13.00394
G1 X-1.628 Y10.186 E13.01911
G1 X-1.609 Y10.241 E13.02153
G1 X-1.600 Y10.416 E13.02882
G1 X-1.458 Y10.905 E13.04999
G1 X-1.408 Y11.028 E13.05551
G1 X-1.173 Y11.421 E13.07454
G1 X-1.534 Y10.927 E13.09998
G1 X-1.736 Y10.495 E13.11981
G1 X-1.823 Y10.204 E13.13244
G1 X-1.852 Y10.033 E13.13965
G1 X-1.851 Y10.017 E13.14031
G1 X-1.867 Y9.871 E13.14642
G1 X-1.858 Y9.635 E13.15624
G1 X-1.778 Y9.133 E13.17737
G1 X-1.723 Y8.939 E13.18576
G1 X-1.577 Y8.586 E13.20164
G1 X-1.351 Y8.226 E13.21931
G1 X-1.167 Y8.006 E13.23123
G1 X-0.801 Y7.682 E13.25156
G1 X-0.542 Y7.519 E13.26428
G1 X-0.255 Y7.388 E13.27740
G1 X-0.469 Y7.519 E13.28783
G1 F2400 E8.78783
G0 F9000 X-1.333 Y2.384
;TYPE:SUPPORT
G1 F2400 E13.28783
G1 F900 X-1.333 Y-2.440 E13.48839
G0 F9000 X-1.870 Y-1.904
G0 X-3.385 Y-1.422
G0 X-3.999 Y-1.991
G1 F900 X-3.999 Y1.471 E13.63232
G0 F9000 X-4.276 Y1.332
G1 F900 X3.900 Y1.333 E13.97224
G0 F9000 X3.103 Y1.164
G0 X2.768 Y-1.332
G0 X3.528 Y-1.332
G1 F900 X-4.092 Y-1.333 E14.28904
G0 F9000 X-3.332 Y-1.333
G0 X-0.254 Y-1.103
G0 X1.583 Y-2.781
G0 X1.333 Y-3.605
G1 F900 X1.333 Y2.572 E14.54585
G0 F9000 X1.333 Y2.079
G1 F900 X1.333 Y3.942 E14.62331
G0 F9000 X1.274 Y3.999
G1 F900 X-3.640 Y3.999 E14.82761
G0 F9000 X-3.999 Y3.640
G1 F900 X-3.999 Y3.233 E14.84453
G0 F9000 X-3.245 Y3.395
G0 X-2.639 Y1.932
G0 X-3.213 Y1.332
G1 F900 X0.952 Y1.333 E15.01769
G0 F9000 X0.278 Y1.683
G0 X-1.333 Y1.984
G0 X-1.333 Y1.224
G1 F900 X-1.333 Y5.386 E15.19072
G1 F2400 E10.69072
G0 F9000 X1.333 Y-6.209
G1 F2400 E15.19072
G1 F900 X1.333 Y-9.976 E15.34734
G0 F9000 X1.333 Y-9.216
G0 X1.968 Y-9.306
G0 X2.727 Y-9.331
G1 F900 X-1.291 Y-9.331 E15.51439
G0 F9000 X-0.532 Y-9.306
G0 X-0.532 Y-6.665
G0 X-1.291 Y-6.665
G1 F900 X2.727 Y-6.665 E15.68143
G1 F2400 E11.18143
G0 F9000 X1.333 Y-10.277
G1 F2400 E15.68143
G1 F900 X1.333 Y-14.654 E15.86341
G0 F9000 X1.315 Y-14.663
G1 F900 X-4.021 Y-14.663 E16.08525
G0 F9000 X-3.999 Y-14.676
G1 F900 X-3.999 Y-10.456 E16.26070
G0 F9000 X-3.999 Y-11.216
G0 X-3.711 Y-11.706
G0 X-4.411 Y-11.997
G1 F900 X2.271 Y-11.997 E16.53851
G0 F9000 X1.736 Y-12.534
G0 X-1.333 Y-10.416
G0 X-1.333 Y-9.656
G1 F900 X-1.333 Y-15.376 E16.77632
;LAYER:1
M106 S84
G1 F2400 E12.27632
G0 F9000 X-1.397 Y9.175 Z0.350
;TYPE:FILL
G1 F2400 E16.77632
G1 F420 X-1.764 Y9.542 E16.78495
G0 F9000 X-1.359 Y10.552
G1 F420 X-1.547 Y10.740 E16.78937
G0 F9000 X-0.842 Y11.448
G1 F420 X-0.939 Y11.545 E16.79165
G0 F9000 X-0.652 Y11.457
;TYPE:WALL-OUTER
G1 F240 X-0.307 Y11.752 E16.79920
G1 X0.189 Y12.077 E16.80906
G1 X0.365 Y12.157 E16.81228
G1 X0.481 Y12.175 E16.81423
G1 X0.605 Y12.221 E16.81643
G1 X0.665 Y12.226 E16.81743
G1 X1.062 Y12.313 E16.82419
G1 X1.369 Y12.256 E16.82938
G1 X1.391 Y12.249 E16.82976
G1 X1.431 Y12.250 E16.83043
G1 X1.499 Y12.244 E16.83157
G1 X1.204 Y12.320 E16.83663
G1 X0.766 Y12.342 E16.84392
G1 X0.369 Y12.309 E16.85055
G1 X-0.107 Y12.185 E16.85873
G1 X-0.478 Y12.032 E16.86540
G1 X-0.769 Y11.856 E16.87106
G1 X-1.057 Y11.630 E16.87715
G1 X-1.263 Y11.414 E16.88211
G1 X-1.535 Y11.043 E16.88976
G1 X-1.686 Y10.783 E16.89476
G1 X-1.853 Y10.367 E16.90222
G1 X-1.929 Y9.962 E16.90907
G1 X-1.925 Y9.886 E16.91033
G1 X-1.931 Y9.829 E16.91129
G1 X-1.888 Y9.350 E16.91929
G1 X-1.765 Y8.865 E16.92761
G1 X-1.639 Y8.574 E16.93288
G1 X-1.420 Y8.230 E16.93966
G1 X-1.228 Y7.993 E16.94473
G1 X-0.874 Y7.673 E16.95267
G1 X-0.465 Y7.424 E16.96063
G1 X-0.176 Y7.292 E16.96592
G1 X0.295 Y7.174 E16.97399
G1 X0.578 Y7.147 E16.97872
G1 X0.596 Y7.148 E16.97902
G1 X0.686 Y7.147 E16.98052
G1 X1.044 Y7.180 E16.98649
G1 X1.470 Y7.273 E16.99375
G1 X1.935 Y7.452 E17.00203
G1 X2.092 Y7.532 E17.00496
G1 X2.257 Y7.638 E17.00822
G1 X1.950 Y7.507 E17.01377
G1 X1.668 Y7.437 E17.01861
G1 X1.455 Y7.413 E17.02217
G1 X1.357 Y7.412 E17.02380
G1 X1.312 Y7.400 E17.02458
G1 X1.160 Y7.412 E17.02711
G1 X0.970 Y7.375 E17.03033
G1 X0.857 Y7.415 E17.03232
G1 X0.806 Y7.419 E17.03317
G1 X0.259 Y7.561 E17.04257
G1 X0.133 Y7.598 E17.04476
G1 X-0.358 Y7.842 E17.05387
G1 X-0.601 Y8.032 E17.05900
G1 X-0.813 Y8.238 E17.06392
G1 X-1.012 Y8.546 E17.07002
G1 X-1.191 Y8.931 E17.07708
G1 X-1.315 Y9.424 E17.08553
G1 X-1.367 Y9.795 E17.09176
G1 X-1.371 Y9.953 E17.09439
G1 X-1.337 Y10.199 E17.09852
G1 X-1.108 Y10.843 E17.10989
G1 X-0.830 Y11.248 E17.11806
G1 X-0.652 Y11.457 E17.12262
G0 F9000 X-0.907 Y11.373
;TYPE:SKIN
G1 F240 X-1.138 Y11.321 E17.12500
G1 X-1.319 Y10.936 E17.12796
G1 X-1.496 Y10.547 E17.13205
G1 X-1.625 Y10.111 E17.13677
G1 X-1.623 Y9.542 E17.14347
G1 X-1.349 Y8.986 E17.15377
G0 F9000 X-1.419 Y8.490
G1 F240 X-0.596 Y7.667 E17.17313
G1 F2400 E12.67313
G0 F9000 X-1.333 Y-10.256
;TYPE:SUPPORT
G1 F2400 E17.17313
G1 F240 X-1.333 Y-14.776 E17.24830
G0 F9000 X-1.333 Y-14.616
G0 X1.220 Y-13.214
G0 X1.333 Y-13.325
G1 F240 X1.333 Y-11.906 E17.27190
G0 F9000 X1.221 Y-12.018
G0 X-3.852 Y-11.366
G0 X-3.999 Y-11.428
G1 F240 X-3.999 Y-11.056 E17.27808
G1 F2400 E12.77808
G0 F9000 X1.333 Y-9.376
G1 F2400 E17.27808
G1 F240 X1.333 Y-6.815 E17.32067
G1 F2400 E12.82067
G0 F9000 X1.333 Y-2.756
G1 F2400 E17.32067
G1 F240 X1.333 Y1.724 E17.39517
G0 F9000 X1.446 Y1.612
G0 X0.527 Y0.874
G0 X-1.384 Y1.600
G0 X-1.333 Y1.752
G1 F240 X-1.333 Y-1.592 E17.45079
G0 F9000 X-1.445 Y-1.480
G0 X-3.887 Y0.093
G0 X-3.999 Y-0.020
G1 F240 X-3.999 Y0.801 E17.46444
G1 F2400 E12.96444
G0 F9000 X-1.333 Y1.824
G1 F2400 E17.46444
G1 F240 X-1.333 Y4.753 E17.51315
;LAYER:2
M106 S168
G1 F2400 E13.01315
G0 F9000 X-1.391 Y8.895 Z0.450
;TYPE:WALL-INNER
G1 F2400 E17.51315
G1 F240 X-1.539 Y9.506 E17.52360
G1 X-1.574 Y9.854 E17.52942
G1 X-1.506 Y10.346 E17.53768
G1 X-1.535 Y10.271 E17.53902
G1 X-1.595 Y9.937 E17.54466
G1 X-1.604 Y9.861 E17.54593
G1 X-1.578 Y9.481 E17.55227
G1 X-1.502 Y9.146 E17.55798
G1 X-1.344 Y8.737 E17.56527
G1 X-1.277 Y8.629 E17.56738
G1 X-1.391 Y8.895 E17.57220
G0 F9000 X-1.010 Y9.022
;TYPE:WALL-OUTER
G1 F240 X-1.144 Y9.573 E17.58163
G1 X-1.171 Y9.847 E17.58621
G1 X-1.114 Y10.261 E17.59316
G1 X-0.881 Y10.769 E17.60245
G1 X-0.610 Y11.132 E17.60998
G1 X-0.453 Y11.287 E17.61365
G1 X0.019 Y11.630 E17.62336
G1 X0.403 Y11.800 E17.63034
G1 X0.619 Y11.850 E17.63403
G1 X1.219 Y11.879 E17.64402
G1 X1.466 Y11.865 E17.64813
G1 X1.916 Y11.736 E17.65592
G1 X2.124 Y11.631 E17.65979
G1 X2.513 Y11.316 E17.66811
G1 X2.860 Y10.863 E17.67760
G1 X3.005 Y10.647 E17.68193
G1 X3.148 Y10.302 E17.68814
G1 X3.189 Y9.793 E17.69663
G1 X3.157 Y9.636 E17.69930
G1 X3.145 Y9.451 E17.70238
G1 X3.111 Y9.315 E17.70471
G1 X2.851 Y8.755 E17.71498
G1 X2.555 Y8.381 E17.72291
G1 X2.431 Y8.262 E17.72577
G1 X2.111 Y8.027 E17.73237
G1 X1.871 Y7.895 E17.73693
G1 X1.575 Y7.792 E17.74214
G1 X1.174 Y7.709 E17.74895
G1 X0.977 Y7.692 E17.75224
G1 X0.754 Y7.695 E17.75595
G1 X0.483 Y7.733 E17.76050
G1 X-0.034 Y7.922 E17.76965
G1 X-0.186 Y7.997 E17.77247
G1 X-0.480 Y8.198 E17.77839
G1 X-0.694 Y8.410 E17.78340
G1 X-0.870 Y8.697 E17.78900
G1 X-1.010 Y9.022 E17.79489
G0 F9000 X-1.995 Y9.945
G1 F240 X-2.006 Y9.889 E17.79583
G1 X-1.975 Y9.422 E17.80362
G1 X-1.886 Y9.031 E17.81029
G1 X-1.705 Y8.561 E17.81866
G1 X-1.488 Y8.213 E17.82548
G1 X-1.160 Y7.845 E17.83368
G1 X-0.909 Y7.639 E17.83908
G1 X-0.559 Y7.419 E17.84596
G1 X-0.477 Y7.375 E17.84750
G1 X0.020 Y7.171 E17.85644
G1 X0.528 Y7.089 E17.86499
G1 X0.679 Y7.087 E17.86751
G1 X1.144 Y7.141 E17.87529
G1 X1.621 Y7.279 E17.88355
G1 X1.887 Y7.388 E17.88833
G1 X2.222 Y7.577 E17.89473
G1 X2.604 Y7.881 E17.90285
G1 X2.918 Y8.262 E17.91106
G1 X3.156 Y8.678 E17.91903
G1 X3.300 Y9.059 E17.92580
G1 X3.382 Y9.449 E17.93243
G1 X3.397 Y9.705 E17.93669
G1 X3.395 Y9.794 E17.93817
G1 X3.368 Y10.071 E17.94280
G1 X3.258 Y10.553 E17.95102
G1 X3.114 Y10.927 E17.95769
G1 X2.998 Y11.146 E17.96181
G1 X2.774 Y11.469 E17.96835
G1 X2.449 Y11.814 E17.97623
G1 X2.054 Y12.102 E17.98436
G1 X1.868 Y12.189 E17.98777
G1 X1.285 Y12.367 E17.99791
G1 X1.068 Y12.398 E18.00155
G1 X0.745 Y12.406 E18.00693
G1 X0.382 Y12.378 E18.01298
G1 X0.007 Y12.291 E18.01938
G1 X-0.355 Y12.157 E18.02580
G1 X-0.813 Y11.904 E18.03450
G1 X-1.229 Y11.565 E18.04343
G1 X-1.593 Y11.071 E18.05363
G1 X-1.681 Y10.919 E18.05655
G1 X-1.771 Y10.769 E18.05946
G1 X-1.922 Y10.380 E18.06640
G1 X-1.994 Y9.978 E18.07319
G1 X-1.995 Y9.945 E18.07374
G0 F9000 X-1.604 Y10.557
;TYPE:SKIN
G1 F240 X-0.139 Y12.022 E18.10820
G0 F9000 X0.410 Y12.007
G1 F240 X0.817 Y12.131 E18.11257
G1 X1.150 Y12.181 E18.11817
G1 F2400 E13.61817
G0 F9000 X-0.927 Y8.406
G1 F2400 E18.11817
G1 F240 X-1.030 Y8.019 E18.12394
G1 X-0.504 Y7.980 E18.12914
G1 X-0.361 Y7.558 E18.13407
G1 X0.153 Y7.506 E18.13907
G1 X0.628 Y7.416 E18.14372
G1 X0.986 Y7.491 E18.14980
G1 F2400 E13.64980
G0 F9000 X-1.333 Y4.753
;TYPE:SUPPORT
G1 F2400 E18.14980
G1 F240 X-1.333 Y1.824 E18.19851
G0 F9000 X-1.333 Y1.752
G1 F240 X-1.333 Y-1.592 E18.25412
G0 F9000 X-1.445 Y-1.480
G0 X-0.254 Y-1.103
G0 X1.445 Y-2.644
G0 X1.333 Y-2.756
G1 F240 X1.333 Y1.724 E18.32862
G0 F9000 X1.446 Y1.612
G0 X0.527 Y0.874
G0 X-3.927 Y0.659
G0 X-3.999 Y0.801
G1 F240 X-3.999 Y-0.020 E18.34228
G1 F2400 E13.84228
G0 F9000 X1.333 Y-6.815
G1 F2400 E18.34228
G1 F240 X1.333 Y-9.376 E18.38487
G1 F2400 E13.88487
G0 F9000 X1.333 Y-11.906
G1 F2400 E18.38487
G1 F240 X1.333 Y-13.325 E18.40846
G0 F9000 X1.220 Y-13.214
G0 X-1.333 Y-14.616
G0 X-1.333 Y-14.776
G1 F240 X-1.333 Y-10.256 E18.48363
G0 F9000 X-1.333 Y-10.416
G0 X-2.351 Y-11.272
G0 X-3.999 Y-11.216
G0 X-3.999 Y-11.056
G1 F240 X-3.999 Y-11.428 E18.48982
;LAYER:3
M106 S255
G1 F2400 E13.98982
G0 F9000 X0.199 Y7.484 Z0.550
;TYPE:WALL-INNER
G1 F2400 E18.48982
G1 F240 X0.567 Y7.427 E18.49601
G1 X0.627 Y7.426 E18.49701
G1 X1.064 Y7.464 E18.50430
G1 X1.278 Y7.526 E18.50801
G1 X1.092 Y7.488 E18.51117
G1 X0.947 Y7.486 E18.51358
G1 X0.899 Y7.487 E18.51438
G1 X0.770 Y7.481 E18.51652
G1 X0.450 Y7.495 E18.52185
G1 X0.221 Y7.546 E18.52575
G1 X-0.054 Y7.642 E18.53060
G1 X-0.408 Y7.822 E18.53720
G1 X-0.581 Y7.935 E18.54064
G1 X-0.944 Y8.284 E18.54901
G1 X-1.241 Y8.858 E18.55976
G1 X-1.319 Y9.048 E18.56317
G1 X-1.412 Y9.439 E18.56986
G1 X-1.452 Y9.776 E18.57550
G1 X-1.433 Y10.017 E18.57952
G1 X-1.344 Y10.399 E18.58604
G1 X-1.097 Y10.882 E18.59507
G1 X-0.723 Y11.368 E18.60526
G1 X-0.282 Y11.713 E18.61458
G1 X-0.097 Y11.822 E18.61815
G1 X0.296 Y11.982 E18.62520
G1 X0.556 Y12.033 E18.62961
G1 X0.635 Y12.029 E18.63092
G1 X0.849 Y12.042 E18.63449
G1 X0.941 Y12.041 E18.63602
G1 X0.978 Y12.044 E18.63664
G1 X1.005 Y12.041 E18.63709
G1 X1.125 Y12.046 E18.63909
G1 X1.018 Y12.065 E18.64089
G1 X0.747 Y12.075 E18.64540
G1 X0.389 Y12.041 E18.65138
G1 X-0.068 Y11.921 E18.65924
G1 X-0.474 Y11.733 E18.66668
G1 X-0.673 Y11.604 E18.67063
G1 X-1.019 Y11.315 E18.67812
G1 X-1.168 Y11.125 E18.68214
G1 X-1.507 Y10.558 E18.69312
G1 X-1.576 Y10.386 E18.69621
G1 X-1.649 Y10.129 E18.70065
G1 X-1.684 Y9.822 E18.70579
G1 X-1.657 Y9.481 E18.71148
G1 X-1.546 Y9.038 E18.71907
G1 X-1.465 Y8.815 E18.72302
G1 X-1.222 Y8.420 E18.73073
G1 X-1.034 Y8.196 E18.73559
G1 X-0.857 Y8.033 E18.73959
G1 X-0.509 Y7.793 E18.74662
G1 X-0.080 Y7.578 E18.75460
