; Generated by Kiri:Moto 1.4.3
; Wed May 29 2019 09:40:31 GMT+0300 (Eastern European Summer Time)
; Bed left:0 right:300 top:175 bottom:0
; --- process ---
; processName = default
; outputOriginCenter = false
; outputInvertX = false
; outputInvertY = false
; outputClockwise = true
; sliceHeight = 0.25
; sliceShells = 3
; sliceShellSpacing = 1
; sliceFillAngle = 45
; sliceFillOverlap = 0.3
; sliceFillSparse = 0.5
; sliceFillType = triangle
; sliceSupportEnable = false
; sliceSupportDensity = 0.25
; sliceSupportOffset = 1
; sliceSupportGap = 1
; sliceSupportSize = 10
; sliceSupportArea = 1
; sliceSupportExtra = 0
; sliceSupportSpan = 6
; sliceSolidMinArea = 1
; sliceSolidLayers = 3
; sliceBottomLayers = 3
; sliceTopLayers = 3
; firstSliceHeight = 0.25
; firstLayerRate = 30
; firstLayerFillRate = 40
; firstLayerPrintMult = 1
; outputRaft = false
; outputRaftSpacing = 0.2
; firstLayerNozzleTemp = 0
; firstLayerBedTemp = 0
; outputTemp = 200
; outputFanMax = 255
; outputBedTemp = 0
; outputFeedrate = 80
; outputFinishrate = 60
; outputSeekrate = 100
; outputShellMult = 1.2
; outputFillMult = 1.2
; outputSparseMult = 1.2
; outputFanLayer = 1
; outputRetractDist = 1
; outputRetractSpeed = 40
; outputRetractDwell = 30
; outputBrimCount = 2
; outputBrimOffset = 2
; outputShortPoly = 50
; outputMinSpeed = 15
; outputCoastDist = 0
; outputWipeDistance = 0
; sliceMinHeight = 0
; antiBacklash = 1
; zHopDistance = 0.2
; outputLayerRetract = false
; gcodeNozzle = 0
; gcodePauseLayers = null
; --- startup ---
M104 S200 T0     ; set extruder temperature
M140 S0 T0 ; set bed temperature
G90                      ; set absolute positioning mode
M83                      ; set relative positioning for extruder
M107                     ; turn off filament cooling fan
G28                      ; home axes
G29                      ; level bed
G92 X0 Y0 Z0 E0          ; reset all axes positions
G1 X0 Y0 Z0.25 F180      ; move xy to 0,0 and z 0.25mm over bed
G92 E0                   ; zero the extruded
M190 S0 T0 ; wait for bed to reach target temp
M109 S200 T0     ; wait for extruder to reach target temp
G1 E15 F200              ; purge 15mm from extruder
G92 E0                   ; zero the extruded
G1 F225                  ; set feed speed
 ; retract 1
G1 E-1 F2400
 ; zhop up
G1 Z0.200 F6000
; --- layer 0 (0.250 @ 0.00) ---
G1 Z0.250
G1 X135.675 Y74.589
 ; zhop down
G1 Z0.250
 ; engage 1
G1 E1 F2400
G4 P30
G1 X135.675 Y100.411 E1.012 F1800
G1 X137.089 Y101.825 E0.078
G1 X162.911 Y101.825 E1.012
G1 X164.325 Y100.411 E0.078
G1 X164.325 Y74.589 E1.012
G1 X162.911 Y73.175 E0.078
G1 X137.089 Y73.175 E1.012
G1 X135.675 Y74.589 E0.078
G1 X135.275 Y74.423 F6000
G1 X135.275 Y100.577 E1.025 F1800
G1 X136.923 Y102.225 E0.091
G1 X163.077 Y102.225 E1.025
G1 X164.725 Y100.577 E0.091
G1 X164.725 Y74.423 E1.025
G1 X163.077 Y72.775 E0.091
G1 X136.923 Y72.775 E1.025
G1 X135.275 Y74.423 E0.091
 ; retract 1
G1 E-1 F2400
 ; zhop up
G1 Z0.450 F6000
G1 X135.275 Y74.423
G1 X138.075 Y75.583
 ; zhop down
G1 Z0.250
 ; engage 1
G1 E1 F2400
G4 P30
G1 X138.075 Y99.417 E0.934 F1800
G1 X138.083 Y99.425 E0
G1 X161.917 Y99.425 E0.934
G1 X161.925 Y99.417 E0
G1 X161.925 Y75.583 E0.934
G1 X161.917 Y75.575 E0
G1 X138.083 Y75.575 E0.934
G1 X138.075 Y75.583 E0
G1 X138.483 Y75.975 F6000
G1 X138.475 Y99.017 E0.903 F1800
G1 X161.517 Y99.025 E0.903
G1 X161.517 Y75.975 E0.903
G1 X138.483 Y75.975 E0.903
G1 X138.883 Y76.375 F6000
G1 X138.879 Y87.307 E0.428 F1572
G1 X149.811 Y76.375 E0.606
G1 X138.883 Y76.375 E0.428
 ; retract 1
G1 E-1 F2400
 ; zhop up
G1 Z0.450 F6000
G1 X150.189 Y76.375
 ; zhop down
G1 Z0.250
 ; engage 1
G1 E1 F2400
G4 P30
G1 X161.117 Y87.303 E0.606 F1572
G1 X161.117 Y76.375 E0.428
G1 X150.189 Y76.375 E0.428
 ; retract 1
G1 E-1 F2400
 ; zhop up
G1 Z0.450 F6000
G1 X138.879 Y87.693
 ; zhop down
G1 Z0.250
 ; engage 1
G1 E1 F2400
G4 P30
G1 X138.875 Y98.617 E0.428 F1572
G1 X149.807 Y98.621 E0.428
G1 X138.879 Y87.693 E0.606
 ; retract 1
G1 E-1 F2400
 ; zhop up
G1 Z0.450 F6000
G1 X150.193 Y98.621
 ; zhop down
G1 Z0.250
 ; engage 1
G1 E1 F2400
G4 P30
G1 X161.117 Y98.625 E0.428 F1571
G1 X161.117 Y87.697 E0.428
G1 X150.193 Y98.621 E0.605
G1 X150.000 Y97.682 F6000
G1 X160.182 Y87.500 E0.564 F1800
G1 X150.000 Y77.318 E0.564
G1 X139.818 Y87.500 E0.564
G1 X150.000 Y97.682 E0.564
G1 X150.000 Y98.248 F6000
G1 X160.748 Y87.500 E0.596 F1800
G1 X150.000 Y76.752 E0.596
G1 X139.252 Y87.500 E0.596
G1 X150.000 Y98.248 E0.596
 ; retract 1
G1 E-1 F2400
 ; zhop up
G1 Z0.450 F6000
G1 X161.837 Y76.221
G1 X160.837 Y77.221
 ; zhop down
G1 Z0.250
 ; engage 1
G1 E1 F2400
G4 P30
G1 X160.271 Y76.655 E0.031
G1 X159.706 Y76.655 E0.022
G1 X160.837 Y77.786 E0.063
G1 X160.837 Y78.352 E0.022
G1 X159.140 Y76.655 E0.094
G1 X158.574 Y76.655 E0.022
G1 X160.837 Y78.918 E0.125
G1 X160.837 Y79.483 E0.022
G1 X158.009 Y76.655 E0.157
G1 X157.443 Y76.655 E0.022
G1 X160.837 Y80.049 E0.188
G1 X160.837 Y80.615 E0.022
G1 X156.877 Y76.655 E0.219
G1 X156.312 Y76.655 E0.022
G1 X160.837 Y81.180 E0.251
G1 X160.837 Y81.746 E0.022
G1 X155.746 Y76.655 E0.282
G1 X155.180 Y76.655 E0.022
G1 X160.837 Y82.312 E0.313
G1 X160.837 Y82.878 E0.022
G1 X154.615 Y76.655 E0.345
G1 X154.049 Y76.655 E0.022
G1 X160.837 Y83.443 E0.376
G1 X160.837 Y84.009 E0.022
G1 X153.483 Y76.655 E0.408
G1 X152.918 Y76.655 E0.022
G1 X160.837 Y84.575 E0.439
G1 X160.837 Y85.140 E0.022
G1 X152.352 Y76.655 E0.47
G1 X151.786 Y76.655 E0.022
G1 X160.837 Y85.706 E0.502
G1 X160.837 Y86.272 E0.022
G1 X151.221 Y76.655 E0.533
 ; retract 1
G1 E-1
 ; zhop up
G1 Z0.450 F6000
G1 X150.047 Y75.744
G1 X149.047 Y76.744
 ; zhop down
G1 Z0.250
 ; engage 1
G1 E1 F2400
G4 P30
G1 X148.958 Y76.655 E0.005
G1 X148.578 Y76.841 E0.013
G1 X148.481 Y77.309 E0.019
G1 X147.826 Y76.655 E0.036
G1 X147.261 Y76.655 E0.022
G1 X148.198 Y77.592 E0.052
G1 X147.915 Y77.875 E0.016
G1 X146.695 Y76.655 E0.068
G1 X146.129 Y76.655 E0.022
G1 X147.632 Y78.158 E0.083
G1 X147.349 Y78.441 E0.016
G1 X145.564 Y76.655 E0.099
G1 X144.998 Y76.655 E0.022
G1 X147.067 Y78.724 E0.115
G1 X146.784 Y79.007 E0.016
G1 X144.432 Y76.655 E0.13
G1 X143.867 Y76.655 E0.022
G1 X146.501 Y79.289 E0.146
G1 X146.218 Y79.572 E0.016
G1 X143.301 Y76.655 E0.162
G1 X142.735 Y76.655 E0.022
G1 X145.935 Y79.855 E0.177
G1 X145.652 Y80.138 E0.016
G1 X142.170 Y76.655 E0.193
G1 X141.604 Y76.655 E0.022
G1 X145.370 Y80.421 E0.209
G1 X145.087 Y80.704 E0.016
G1 X141.038 Y76.655 E0.224
G1 X140.472 Y76.655 E0.022
G1 X144.804 Y80.986 E0.24
G1 X144.521 Y81.269 E0.016
G1 X139.907 Y76.655 E0.256
G1 X139.341 Y76.655 E0.022
G1 X144.238 Y81.552 E0.271
G1 X143.955 Y81.835 E0.016
G1 X139.162 Y77.042 E0.266
G1 X139.162 Y77.607 E0.022
G1 X143.673 Y82.118 E0.25
G1 X143.390 Y82.401 E0.016
G1 X139.162 Y78.173 E0.234
G1 X139.162 Y78.738 E0.022
G1 X143.107 Y82.683 E0.219
G1 X142.824 Y82.966 E0.016
G1 X139.162 Y79.304 E0.203
G1 X139.161 Y79.869 E0.022
G1 X142.541 Y83.249 E0.187
G1 X142.258 Y83.532 E0.016
G1 X139.161 Y80.435 E0.172
G1 X139.161 Y81.000 E0.022
G1 X141.975 Y83.815 E0.156
G1 X141.693 Y84.098 E0.016
G1 X139.161 Y81.566 E0.14
G1 X139.161 Y82.131 E0.022
G1 X141.410 Y84.381 E0.125
G1 X141.127 Y84.663 E0.016
G1 X139.161 Y82.697 E0.109
G1 X139.160 Y83.262 E0.022
G1 X140.844 Y84.946 E0.093
G1 X140.561 Y85.229 E0.016
G1 X139.160 Y83.828 E0.078
G1 X139.160 Y84.393 E0.022
G1 X140.278 Y85.512 E0.062
G1 X139.996 Y85.795 E0.016
G1 X139.160 Y84.959 E0.046
G1 X139.160 Y85.524 E0.022
G1 X139.713 Y86.078 E0.031
G1 X139.295 Y86.225 E0.01
 ; retract 1
G1 E-1
 ; zhop up
G1 Z0.450 F6000
G1 X161.837 Y87.534
G1 X160.837 Y88.534
 ; zhop down
G1 Z0.250
 ; engage 1
G1 E1 F2400
G4 P30
G1 X160.756 Y88.453 E0.004
G1 X160.655 Y88.918 E0.011
G1 X160.837 Y89.666 F6000
G1 X160.191 Y89.019 E0.036 F2400
G1 X159.908 Y89.302 E0.016
G1 X160.837 Y90.231 E0.052
G1 X160.837 Y90.797 E0.022
G1 X159.625 Y89.585 E0.067
G1 X159.342 Y89.868 E0.016
G1 X160.837 Y91.363 E0.083
G1 X160.837 Y91.929 E0.022
G1 X159.059 Y90.151 E0.099
G1 X158.776 Y90.433 E0.016
G1 X160.837 Y92.494 E0.114
G1 X160.837 Y93.060 E0.022
G1 X158.493 Y90.716 E0.13
G1 X158.211 Y90.999 E0.016
G1 X160.837 Y93.626 E0.146
G1 X160.837 Y94.191 E0.022
G1 X157.928 Y91.282 E0.161
G1 X157.645 Y91.565 E0.016
G1 X160.837 Y94.757 E0.177
G1 X160.837 Y95.323 E0.022
G1 X157.362 Y91.848 E0.193
G1 X157.079 Y92.130 E0.016
G1 X160.837 Y95.888 E0.208
G1 X160.837 Y96.454 E0.022
G1 X156.796 Y92.413 E0.224
G1 X156.514 Y92.696 E0.016
G1 X160.837 Y97.020 E0.24
G1 X160.837 Y97.585 E0.022
G1 X156.231 Y92.979 E0.255
G1 X155.948 Y93.262 E0.016
G1 X160.837 Y98.151 E0.271
G1 X160.465 Y98.345 E0.016
G1 X155.665 Y93.545 E0.266
G1 X155.382 Y93.827 E0.016
G1 X159.899 Y98.344 E0.25
G1 X159.333 Y98.344 E0.022
G1 X155.099 Y94.110 E0.235
G1 X154.817 Y94.393 E0.016
G1 X158.767 Y98.344 E0.219
G1 X158.201 Y98.344 E0.022
G1 X154.534 Y94.676 E0.203
G1 X154.251 Y94.959 E0.016
G1 X157.636 Y98.344 E0.188
G1 X157.070 Y98.343 E0.022
G1 X153.968 Y95.242 E0.172
G1 X153.685 Y95.525 E0.016
G1 X156.504 Y98.343 E0.156
G1 X155.938 Y98.343 E0.022
G1 X153.402 Y95.807 E0.141
G1 X153.119 Y96.090 E0.016
G1 X155.372 Y98.343 E0.125
G1 X154.806 Y98.343 E0.022
G1 X152.837 Y96.373 E0.109
G1 X152.554 Y96.656 E0.016
G1 X154.240 Y98.342 E0.093
G1 X153.674 Y98.342 E0.022
G1 X152.271 Y96.939 E0.078
G1 X151.988 Y97.222 E0.016
G1 X153.109 Y98.342 E0.062
G1 X152.543 Y98.342 E0.022
G1 X151.705 Y97.504 E0.046
G1 X151.422 Y97.787 E0.016
G1 X151.977 Y98.342 E0.031
G1 X151.275 Y98.206 E0.023
 ; retract 1
G1 E-1
 ; zhop up
G1 Z0.450 F6000
G1 X140.158 Y87.917
G1 X139.158 Y88.917
 ; zhop down
G1 Z0.250
 ; engage 1
G1 E1 F2400
G4 P30
G1 X148.582 Y98.341 E0.522
G1 X148.016 Y98.340 E0.022
G1 X139.158 Y89.483 E0.491
G1 X139.158 Y90.048 E0.022
G1 X147.450 Y98.340 E0.459
G1 X146.884 Y98.340 E0.022
G1 X139.158 Y90.614 E0.428
G1 X139.158 Y91.179 E0.022
G1 X146.318 Y98.340 E0.397
G1 X145.752 Y98.340 E0.022
G1 X139.158 Y91.745 E0.365
G1 X139.157 Y92.310 E0.022
G1 X145.186 Y98.340 E0.334
G1 X144.621 Y98.339 E0.022
G1 X139.157 Y92.876 E0.303
G1 X139.157 Y93.441 E0.022
G1 X144.055 Y98.339 E0.271
G1 X143.489 Y98.339 E0.022
G1 X139.157 Y94.007 E0.24
G1 X139.157 Y94.572 E0.022
G1 X142.923 Y98.339 E0.209
G1 X142.357 Y98.339 E0.022
G1 X139.156 Y95.138 E0.177
G1 X139.156 Y95.703 E0.022
G1 X141.791 Y98.338 E0.146
G1 X141.225 Y98.338 E0.022
G1 X139.156 Y96.269 E0.115
G1 X139.156 Y96.834 E0.022
G1 X140.659 Y98.338 E0.083
G1 X140.094 Y98.338 E0.022
G1 X139.156 Y97.400 E0.052
G1 X139.342 Y98.152 E0.025
; --- layer 1 (0.250 @ 0.25) ---
M106 S255
G1 Z0.500 F6000
G1 X139.342 Y98.152
G1 X137.825 Y99.417
G1 X138.083 Y99.675 E0.014 F3600
G1 X161.917 Y99.675 E0.934
G1 X162.175 Y99.417 E0.014
G1 X162.175 Y75.583 E0.934
G1 X161.917 Y75.325 E0.014
G1 X138.083 Y75.325 E0.934
G1 X137.825 Y75.583 E0.014
G1 X137.825 Y99.417 E0.934
G1 X138.225 Y99.251 F6000
G1 X138.249 Y99.275 E0.001 F4800
G1 X161.751 Y99.275 E0.921
G1 X161.775 Y99.251 E0.001
G1 X161.775 Y75.749 E0.921
G1 X161.751 Y75.725 E0.001
G1 X138.249 Y75.725 E0.921
G1 X138.225 Y75.749 E0.001
G1 X138.225 Y99.251 E0.921
G1 X138.625 Y98.875 F6000
G1 X161.375 Y98.875 E0.891 F4800
G1 X161.375 Y76.125 E0.891
G1 X138.625 Y76.125 E0.891
G1 X138.625 Y98.875 E0.891
 ; retract 1
G1 E-1 F2400
 ; zhop up
G1 Z0.700 F6000
G1 X150.000 Y97.682
 ; zhop down
G1 Z0.500
 ; engage 1
G1 E1 F2400
G4 P30
G1 X160.182 Y87.500 E0.564 F3600
G1 X150.000 Y77.318 E0.564
G1 X139.818 Y87.500 E0.564
G1 X150.000 Y97.682 E0.564
G1 X150.000 Y98.248 F6000
G1 X160.748 Y87.500 E0.596 F4800
G1 X150.000 Y76.752 E0.596
G1 X139.252 Y87.500 E0.596
G1 X150.000 Y98.248 E0.596
G1 X150.000 Y98.814 F6000
G1 X161.314 Y87.500 E0.627 F4800
G1 X150.000 Y76.186 E0.627
G1 X138.686 Y87.500 E0.627
G1 X150.000 Y98.814 E0.627
 ; retract 1
G1 E-1 F2400
 ; zhop up
G1 Z0.700 F6000
G1 X140.471 Y75.405
G1 X139.471 Y76.405
 ; zhop down
G1 Z0.500
 ; engage 1
G1 E1 F2400
G4 P30
G1 X138.905 Y76.971 E0.031 F4800
G1 X138.905 Y77.536 E0.022
G1 X140.036 Y76.405 E0.063
G1 X140.602 Y76.405 E0.022
G1 X138.905 Y78.102 E0.094
G1 X138.905 Y78.668 E0.022
G1 X141.168 Y76.405 E0.125
G1 X141.733 Y76.405 E0.022
G1 X138.905 Y79.233 E0.157
G1 X138.905 Y79.799 E0.022
G1 X142.299 Y76.405 E0.188
G1 X142.865 Y76.405 E0.022
G1 X138.905 Y80.365 E0.219
G1 X138.905 Y80.930 E0.022
G1 X143.430 Y76.405 E0.251
G1 X143.996 Y76.405 E0.022
G1 X138.905 Y81.496 E0.282
G1 X138.905 Y82.062 E0.022
G1 X144.562 Y76.405 E0.313
G1 X145.128 Y76.405 E0.022
G1 X138.905 Y82.628 E0.345
G1 X138.905 Y83.193 E0.022
G1 X145.693 Y76.405 E0.376
G1 X146.259 Y76.405 E0.022
G1 X138.905 Y83.759 E0.408
G1 X138.905 Y84.325 E0.022
G1 X146.825 Y76.405 E0.439
G1 X147.390 Y76.405 E0.022
G1 X138.905 Y84.890 E0.47
G1 X138.905 Y85.456 E0.022
G1 X147.956 Y76.405 E0.502
G1 X148.522 Y76.405 E0.022
G1 X138.905 Y86.022 E0.533
G1 X138.905 Y86.587 E0.022
G1 X149.087 Y76.405 E0.564
G1 X150.784 Y76.405 F6000
G1 X150.700 Y76.490 E0.005 F4800
G1 X151.166 Y76.589 E0.011
G1 X151.916 Y76.405 F6000
G1 X151.265 Y77.056 E0.036 F4800
G1 X151.548 Y77.338 E0.016
G1 X152.481 Y76.405 E0.052
G1 X153.047 Y76.405 E0.022
G1 X151.831 Y77.621 E0.067
G1 X152.114 Y77.904 E0.016
G1 X153.613 Y76.405 E0.083
G1 X154.179 Y76.405 E0.022
G1 X152.397 Y78.187 E0.099
G1 X152.679 Y78.470 E0.016
G1 X154.744 Y76.405 E0.114
G1 X155.310 Y76.405 E0.022
G1 X152.962 Y78.753 E0.13
G1 X153.245 Y79.035 E0.016
G1 X155.876 Y76.405 E0.146
G1 X156.441 Y76.405 E0.022
G1 X153.528 Y79.318 E0.161
G1 X153.811 Y79.601 E0.016
G1 X157.007 Y76.405 E0.177
G1 X157.573 Y76.405 E0.022
G1 X154.094 Y79.884 E0.193
G1 X154.377 Y80.167 E0.016
G1 X158.138 Y76.405 E0.208
G1 X158.704 Y76.405 E0.022
G1 X154.659 Y80.450 E0.224
G1 X154.942 Y80.732 E0.016
G1 X159.270 Y76.405 E0.24
G1 X159.835 Y76.405 E0.022
G1 X155.225 Y81.015 E0.255
G1 X155.508 Y81.298 E0.016
G1 X160.401 Y76.405 E0.271
G1 X160.967 Y76.405 E0.022
G1 X155.791 Y81.581 E0.287
G1 X156.074 Y81.864 E0.016
G1 X161.095 Y76.842 E0.278
G1 X161.095 Y77.408 E0.022
G1 X156.356 Y82.147 E0.263
G1 X156.639 Y82.430 E0.016
G1 X161.095 Y77.974 E0.247
G1 X161.095 Y78.539 E0.022
G1 X156.922 Y82.712 E0.231
G1 X157.205 Y82.995 E0.016
G1 X161.095 Y79.105 E0.216
G1 X161.095 Y79.671 E0.022
G1 X157.488 Y83.278 E0.2
G1 X157.771 Y83.561 E0.016
G1 X161.095 Y80.237 E0.184
G1 X161.095 Y80.802 E0.022
G1 X158.053 Y83.844 E0.169
G1 X158.336 Y84.127 E0.016
G1 X161.095 Y81.368 E0.153
G1 X161.095 Y81.934 E0.022
G1 X158.619 Y84.409 E0.137
G1 X158.902 Y84.692 E0.016
G1 X161.095 Y82.499 E0.122
G1 X161.095 Y83.065 E0.022
G1 X159.185 Y84.975 E0.106
G1 X159.468 Y85.258 E0.016
G1 X161.095 Y83.631 E0.09
G1 X161.095 Y84.196 E0.022
G1 X159.751 Y85.541 E0.075
G1 X160.033 Y85.824 E0.016
G1 X161.095 Y84.762 E0.059
G1 X161.095 Y85.328 E0.022
G1 X160.316 Y86.107 E0.043
G1 X160.599 Y86.389 E0.016
G1 X161.095 Y85.893 E0.027
G1 X160.988 Y86.566 E0.022
 ; retract 1
G1 E-1 F2400
 ; zhop up
G1 Z0.700 F6000
G1 X139.990 Y87.200
G1 X138.990 Y88.200
 ; zhop down
G1 Z0.500
 ; engage 1
G1 E1 F2400
G4 P30
G1 X138.905 Y88.284 E0.005 F4800
G1 X139.089 Y88.666 E0.013
G1 X139.556 Y88.765 E0.019
G1 X138.905 Y89.416 E0.036
G1 X138.905 Y89.981 E0.022
G1 X139.838 Y89.048 E0.052
G1 X140.121 Y89.331 E0.016
G1 X138.905 Y90.547 E0.067
G1 X138.905 Y91.113 E0.022
G1 X140.404 Y89.614 E0.083
G1 X140.687 Y89.897 E0.016
G1 X138.905 Y91.679 E0.099
G1 X138.905 Y92.244 E0.022
G1 X140.970 Y90.179 E0.114
G1 X141.253 Y90.462 E0.016
G1 X138.905 Y92.810 E0.13
G1 X138.905 Y93.376 E0.022
G1 X141.535 Y90.745 E0.146
G1 X141.818 Y91.028 E0.016
G1 X138.905 Y93.941 E0.161
G1 X138.905 Y94.507 E0.022
G1 X142.101 Y91.311 E0.177
G1 X142.384 Y91.594 E0.016
G1 X138.905 Y95.073 E0.193
G1 X138.905 Y95.638 E0.022
G1 X142.667 Y91.877 E0.208
G1 X142.950 Y92.159 E0.016
G1 X138.905 Y96.204 E0.224
G1 X138.905 Y96.770 E0.022
G1 X143.232 Y92.442 E0.24
G1 X143.515 Y92.725 E0.016
G1 X138.905 Y97.335 E0.255
G1 X138.905 Y97.901 E0.022
G1 X143.798 Y93.008 E0.271
G1 X144.081 Y93.291 E0.016
G1 X138.905 Y98.467 E0.287
G1 X139.342 Y98.595 E0.018
G1 X144.364 Y93.574 E0.278
G1 X144.647 Y93.856 E0.016
G1 X139.908 Y98.595 E0.263
G1 X140.474 Y98.595 E0.022
G1 X144.930 Y94.139 E0.247
G1 X145.212 Y94.422 E0.016
G1 X141.039 Y98.595 E0.231
